; Generated with:
; "Grbl compatible Raster2LaserGcode generator"
; by 305 Engineering and Awesome.tech
; Modified for K40Controller
;
;
$X
G21
G90
G92 X0.0 Y0.0
M4
G1X4.0Y0.0F3000S230
G1X5.0Y0.0F3000S231
G1X6.0Y0.0F3000S232
G1X7.0Y0.0F3000S231
G1X8.0Y0.0F3000S232
G1X9.0Y0.0F3000S231
G1X11.0Y0.0F3000S230
G1X12.0Y0.0F3000S228
G1X13.0Y0.0F3000S229
G1X15.0Y0.0F3000S228
G1X16.0Y0.0F3000S229
G1X17.0Y0.0F3000S230
G1X19.0Y0.0F3000S229
G1X20.0Y0.0F3000S222
G1X22.0Y0.0F3000S219
G1X23.0Y0.0F3000S220
G1X24.0Y0.0F3000S221
G1X25.0Y0.0F3000S220
G1X27.0Y0.0F3000S219
G1X28.0Y0.0F3000S220
G1X29.0Y0.0F3000S226
G1X30.0Y0.0F3000S221
G1X31.0Y0.0F3000S220
G1X32.0Y0.0F3000S229
G1X33.0Y0.0F3000S223
G1X34.0Y0.0F3000S226
G1X35.0Y0.0F3000S229
G1X36.0Y0.0F3000S225
G1X37.0Y0.0F3000S222
G1X39.0Y0.0F3000S228
G1X40.0Y0.0F3000S229
G1X41.0Y0.0F3000S224
G1X42.0Y0.0F3000S231
G1X44.0Y0.0F3000S232
G1X46.0Y0.0F3000S233
G1X47.0Y0.0F3000S232
G1X48.0Y0.0F3000S229
G1X50.0Y0.0F3000S230
G1X51.0Y0.0F3000S228
G1X52.0Y0.0F3000S230
G1X53.0Y0.0F3000S231
G1X55.0Y0.0F3000S230
G1X57.0Y0.0F3000S229
G1X59.0Y0.0F3000S230
G1X60.0Y0.0F3000S229
G1X62.0Y0.0F3000S228
G1X63.0Y0.0F3000S229
G1X64.0Y0.0F3000S230
G1X65.0Y0.0F3000S229
G1X66.0Y0.0F3000S228
G1X68.0Y0.0F3000S227
G1X69.0Y0.0F3000S226
G1X70.0Y0.0F3000S224
G1X71.0Y0.0F3000S215
G1X72.0Y0.0F3000S153
G1X73.0Y0.0F3000S87
G1X74.0Y0.0F3000S57
G1X75.0Y0.0F3000S39
G1X76.0Y0.0F3000S16
G1X77.0Y0.0F3000S9
G1X78.0Y0.0F3000S21
G1X79.0Y0.0F3000S32
G1X80.0Y0.0F3000S35
G1X81.0Y0.0F3000S21
G1X82.0Y0.0F3000S36
G1X83.0Y0.0F3000S28
G1X84.0Y0.0F3000S44
G1X85.0Y0.0F3000S132
G1X86.0Y0.0F3000S197
G1X87.0Y0.0F3000S213
G1X88.0Y0.0F3000S205
G1X89.0Y0.0F3000S189
G1X90.0Y0.0F3000S186
G1X91.0Y0.0F3000S195
G1X92.0Y0.0F3000S136
G1X93.0Y0.0F3000S150
G1X94.0Y0.0F3000S157
G1X95.0Y0.0F3000S196
G1X96.0Y0.0F3000S226
G1X97.0Y0.0F3000S222
G1X98.0Y0.0F3000S206
G1X99.0Y0.0F3000S191
G1X100.0Y0.0F3000S173
G1X101.0Y0.0F3000S213
G1X102.0Y0.0F3000S217
G1X106.0Y0.0F3000S225
G1X108.0Y0.0F3000S228
G1X110.0Y0.0F3000S227
G1X113.0Y0.0F3000S225
G1X115.0Y0.0F3000S226
G1X117.0Y0.0F3000S227
G1X118.0Y0.0F3000S225
G1X121.0Y0.0F3000S224
G1X122.0Y0.0F3000S222
G1X123.0Y0.0F3000S221
G1X127.0Y0.0F3000S222
G1X128.0Y0.0F3000S221
G1X129.0Y0.0F3000S222
G1X131.0Y0.0F3000S221
G1X132.0Y0.0F3000S220
G1X133.0Y0.0F3000S222
G1X135.0Y0.0F3000S221
G1X136.0Y0.0F3000S219
G1X137.0Y0.0F3000S218
G1X138.0Y0.0F3000S217
G1X139.0Y0.0F3000S219
G1X140.0Y0.0F3000S218
G1X141.0Y0.0F3000S217
G1X142.0Y0.0F3000S218
G1X144.0Y0.0F3000S216
G1X145.0Y0.0F3000S217
G0X145.0Y1.0 
G1X144.0Y1.0F3000S217
G1X143.0Y1.0F3000S218
G1X142.0Y1.0F3000S217
G1X141.0Y1.0F3000S216
G1X140.0Y1.0F3000S218
G1X138.0Y1.0F3000S220
G1X137.0Y1.0F3000S214
G1X136.0Y1.0F3000S221
G1X135.0Y1.0F3000S219
G1X134.0Y1.0F3000S221
G1X132.0Y1.0F3000S222
G1X130.0Y1.0F3000S221
G1X128.0Y1.0F3000S222
G1X125.0Y1.0F3000S223
G1X124.0Y1.0F3000S222
G1X122.0Y1.0F3000S221
G1X121.0Y1.0F3000S222
G1X120.0Y1.0F3000S225
G1X119.0Y1.0F3000S224
G1X117.0Y1.0F3000S225
G1X113.0Y1.0F3000S227
G1X109.0Y1.0F3000S226
G1X107.0Y1.0F3000S227
G1X106.0Y1.0F3000S228
G1X104.0Y1.0F3000S226
G1X102.0Y1.0F3000S225
G1X101.0Y1.0F3000S224
G1X100.0Y1.0F3000S196
G1X99.0Y1.0F3000S222
G1X98.0Y1.0F3000S221
G1X97.0Y1.0F3000S225
G1X96.0Y1.0F3000S227
G1X95.0Y1.0F3000S226
G1X94.0Y1.0F3000S222
G1X93.0Y1.0F3000S215
G1X92.0Y1.0F3000S209
G1X91.0Y1.0F3000S218
G1X90.0Y1.0F3000S198
G1X89.0Y1.0F3000S203
G1X88.0Y1.0F3000S213
G1X87.0Y1.0F3000S209
G1X86.0Y1.0F3000S218
G1X85.0Y1.0F3000S220
G1X84.0Y1.0F3000S97
G1X83.0Y1.0F3000S34
G1X82.0Y1.0F3000S48
G1X81.0Y1.0F3000S55
G1X80.0Y1.0F3000S11
G1X79.0Y1.0F3000S23
G1X78.0Y1.0F3000S42
G1X77.0Y1.0F3000S60
G1X76.0Y1.0F3000S87
G1X75.0Y1.0F3000S152
G1X74.0Y1.0F3000S216
G1X73.0Y1.0F3000S223
G1X72.0Y1.0F3000S224
G1X71.0Y1.0F3000S228
G1X70.0Y1.0F3000S227
G1X68.0Y1.0F3000S228
G1X66.0Y1.0F3000S229
G1X65.0Y1.0F3000S230
G1X64.0Y1.0F3000S229
G1X63.0Y1.0F3000S231
G1X62.0Y1.0F3000S229
G1X61.0Y1.0F3000S228
G1X58.0Y1.0F3000S229
G1X57.0Y1.0F3000S230
G1X56.0Y1.0F3000S226
G1X55.0Y1.0F3000S229
G1X54.0Y1.0F3000S214
G1X53.0Y1.0F3000S226
G1X52.0Y1.0F3000S224
G1X51.0Y1.0F3000S225
G1X50.0Y1.0F3000S216
G1X49.0Y1.0F3000S229
G1X48.0Y1.0F3000S224
G1X47.0Y1.0F3000S230
G1X45.0Y1.0F3000S232
G1X43.0Y1.0F3000S233
G1X42.0Y1.0F3000S232
G1X41.0Y1.0F3000S230
G1X40.0Y1.0F3000S227
G1X38.0Y1.0F3000S230
G1X37.0Y1.0F3000S229
G1X35.0Y1.0F3000S226
G1X34.0Y1.0F3000S229
G1X33.0Y1.0F3000S226
G1X32.0Y1.0F3000S223
G1X31.0Y1.0F3000S222
G1X30.0Y1.0F3000S220
G1X29.0Y1.0F3000S222
G1X28.0Y1.0F3000S226
G1X27.0Y1.0F3000S218
G1X24.0Y1.0F3000S219
G1X23.0Y1.0F3000S220
G1X21.0Y1.0F3000S222
G1X20.0Y1.0F3000S224
G1X19.0Y1.0F3000S225
G1X18.0Y1.0F3000S229
G1X15.0Y1.0F3000S228
G1X14.0Y1.0F3000S227
G1X12.0Y1.0F3000S228
G1X11.0Y1.0F3000S229
G1X10.0Y1.0F3000S231
G1X8.0Y1.0F3000S230
G1X6.0Y1.0F3000S231
G1X5.0Y1.0F3000S230
G1X3.0Y1.0F3000S231
G1X2.0Y1.0F3000S229
G1X0.0Y1.0F3000
G1X2.0Y2.0F3000S230
G1X3.0Y2.0F3000S229
G1X4.0Y2.0F3000S230
G1X5.0Y2.0F3000S229
G1X6.0Y2.0F3000S231
G1X7.0Y2.0F3000S230
G1X8.0Y2.0F3000S231
G1X9.0Y2.0F3000S228
G1X10.0Y2.0F3000S229
G1X11.0Y2.0F3000S231
G1X14.0Y2.0F3000S229
G1X15.0Y2.0F3000S228
G1X16.0Y2.0F3000S229
G1X17.0Y2.0F3000S228
G1X18.0Y2.0F3000S227
G1X19.0Y2.0F3000S229
G1X20.0Y2.0F3000S230
G1X25.0Y2.0F3000S229
G1X27.0Y2.0F3000S228
G1X28.0Y2.0F3000S227
G1X29.0Y2.0F3000S229
G1X30.0Y2.0F3000S232
G1X31.0Y2.0F3000S231
G1X33.0Y2.0F3000S230
G1X35.0Y2.0F3000S231
G1X37.0Y2.0F3000S229
G1X39.0Y2.0F3000S231
G1X40.0Y2.0F3000S232
G1X41.0Y2.0F3000S230
G1X43.0Y2.0F3000S232
G1X45.0Y2.0F3000S234
G1X46.0Y2.0F3000S233
G1X47.0Y2.0F3000S232
G1X48.0Y2.0F3000S212
G1X50.0Y2.0F3000S231
G1X51.0Y2.0F3000S230
G1X53.0Y2.0F3000S232
G1X54.0Y2.0F3000S233
G1X56.0Y2.0F3000S231
G1X57.0Y2.0F3000S230
G1X58.0Y2.0F3000S231
G1X59.0Y2.0F3000S230
G1X62.0Y2.0F3000S229
G1X63.0Y2.0F3000S226
G1X64.0Y2.0F3000S222
G1X65.0Y2.0F3000S230
G1X66.0Y2.0F3000S222
G1X67.0Y2.0F3000S230
G1X68.0Y2.0F3000S228
G1X69.0Y2.0F3000S226
G1X70.0Y2.0F3000S224
G1X71.0Y2.0F3000S221
G1X73.0Y2.0F3000S227
G1X74.0Y2.0F3000S212
G1X75.0Y2.0F3000S218
G1X76.0Y2.0F3000S226
G1X77.0Y2.0F3000S224
G1X78.0Y2.0F3000S225
G1X79.0Y2.0F3000S219
G1X80.0Y2.0F3000S169
G1X81.0Y2.0F3000S119
G1X82.0Y2.0F3000S97
G1X83.0Y2.0F3000S53
G1X84.0Y2.0F3000S19
G1X85.0Y2.0F3000S122
G1X86.0Y2.0F3000S221
G1X87.0Y2.0F3000S196
G1X88.0Y2.0F3000S215
G1X90.0Y2.0F3000S223
G1X91.0Y2.0F3000S215
G1X92.0Y2.0F3000S226
G1X93.0Y2.0F3000S203
G1X94.0Y2.0F3000S209
G1X95.0Y2.0F3000S208
G1X96.0Y2.0F3000S221
G1X97.0Y2.0F3000S224
G1X98.0Y2.0F3000S219
G1X99.0Y2.0F3000S228
G1X100.0Y2.0F3000S222
G1X101.0Y2.0F3000S197
G1X102.0Y2.0F3000S226
G1X104.0Y2.0F3000S225
G1X106.0Y2.0F3000S226
G1X109.0Y2.0F3000S228
G1X110.0Y2.0F3000S227
G1X114.0Y2.0F3000S226
G1X117.0Y2.0F3000S227
G1X119.0Y2.0F3000S225
G1X120.0Y2.0F3000S224
G1X121.0Y2.0F3000S225
G1X122.0Y2.0F3000S223
G1X123.0Y2.0F3000S224
G1X124.0Y2.0F3000S222
G1X125.0Y2.0F3000S223
G1X126.0Y2.0F3000S224
G1X130.0Y2.0F3000S223
G1X132.0Y2.0F3000S222
G1X134.0Y2.0F3000S221
G1X135.0Y2.0F3000S220
G1X136.0Y2.0F3000S219
G1X137.0Y2.0F3000S220
G1X138.0Y2.0F3000S215
G1X139.0Y2.0F3000S219
G1X140.0Y2.0F3000S220
G1X143.0Y2.0F3000S218
G1X144.0Y2.0F3000S219
G1X145.0Y2.0F3000S218
G0X145.0Y3.0 
G1X143.0Y3.0F3000S218
G1X140.0Y3.0F3000S219
G1X138.0Y3.0F3000S220
G1X137.0Y3.0F3000S216
G1X136.0Y3.0F3000S220
G1X133.0Y3.0F3000S221
G1X130.0Y3.0F3000S222
G1X128.0Y3.0F3000S223
G1X127.0Y3.0F3000S225
G1X123.0Y3.0F3000S224
G1X122.0Y3.0F3000S225
G1X121.0Y3.0F3000S226
G1X120.0Y3.0F3000S225
G1X119.0Y3.0F3000S224
G1X118.0Y3.0F3000S225
G1X117.0Y3.0F3000S226
G1X115.0Y3.0F3000S225
G1X114.0Y3.0F3000S226
G1X113.0Y3.0F3000S225
G1X108.0Y3.0F3000S226
G1X106.0Y3.0F3000S227
G1X104.0Y3.0F3000S226
G1X103.0Y3.0F3000S225
G1X102.0Y3.0F3000S226
G1X101.0Y3.0F3000S225
G1X100.0Y3.0F3000S210
G1X99.0Y3.0F3000S199
G1X98.0Y3.0F3000S225
G1X97.0Y3.0F3000S220
G1X95.0Y3.0F3000S228
G1X94.0Y3.0F3000S232
G1X93.0Y3.0F3000S230
G1X92.0Y3.0F3000S229
G1X91.0Y3.0F3000S228
G1X90.0Y3.0F3000S226
G1X89.0Y3.0F3000S224
G1X88.0Y3.0F3000S225
G1X87.0Y3.0F3000S226
G1X86.0Y3.0F3000S216
G1X85.0Y3.0F3000S215
G1X84.0Y3.0F3000S225
G1X83.0Y3.0F3000S208
G1X82.0Y3.0F3000S224
G1X81.0Y3.0F3000S227
G1X79.0Y3.0F3000S228
G1X78.0Y3.0F3000S227
G1X76.0Y3.0F3000S228
G1X74.0Y3.0F3000S229
G1X73.0Y3.0F3000S227
G1X71.0Y3.0F3000S229
G1X70.0Y3.0F3000S227
G1X69.0Y3.0F3000S228
G1X68.0Y3.0F3000S229
G1X67.0Y3.0F3000S222
G1X66.0Y3.0F3000S229
G1X65.0Y3.0F3000S230
G1X64.0Y3.0F3000S204
G1X63.0Y3.0F3000S228
G1X62.0Y3.0F3000S203
G1X60.0Y3.0F3000S229
G1X58.0Y3.0F3000S231
G1X57.0Y3.0F3000S230
G1X55.0Y3.0F3000S229
G1X54.0Y3.0F3000S231
G1X52.0Y3.0F3000S232
G1X51.0Y3.0F3000S231
G1X50.0Y3.0F3000S230
G1X49.0Y3.0F3000S232
G1X48.0Y3.0F3000S227
G1X47.0Y3.0F3000S210
G1X46.0Y3.0F3000S230
G1X45.0Y3.0F3000S231
G1X41.0Y3.0F3000S232
G1X40.0Y3.0F3000S231
G1X39.0Y3.0F3000S233
G1X37.0Y3.0F3000S232
G1X36.0Y3.0F3000S233
G1X33.0Y3.0F3000S232
G1X32.0Y3.0F3000S231
G1X31.0Y3.0F3000S232
G1X30.0Y3.0F3000S233
G1X29.0Y3.0F3000S232
G1X28.0Y3.0F3000S230
G1X26.0Y3.0F3000S231
G1X24.0Y3.0F3000S230
G1X22.0Y3.0F3000S231
G1X21.0Y3.0F3000S230
G1X19.0Y3.0F3000S231
G1X18.0Y3.0F3000S230
G1X17.0Y3.0F3000S229
G1X15.0Y3.0F3000S230
G1X14.0Y3.0F3000S229
G1X12.0Y3.0F3000S230
G1X10.0Y3.0F3000S229
G1X9.0Y3.0F3000S228
G1X8.0Y3.0F3000S229
G1X6.0Y3.0F3000S230
G1X5.0Y3.0F3000S229
G1X4.0Y3.0F3000S230
G1X3.0Y3.0F3000S229
G1X2.0Y3.0F3000S228
G1X0.0Y3.0F3000
G1X1.0Y4.0F3000S227
G1X2.0Y4.0F3000S226
G1X3.0Y4.0F3000S225
G1X4.0Y4.0F3000S228
G1X7.0Y4.0F3000S229
G1X8.0Y4.0F3000S230
G1X10.0Y4.0F3000S229
G1X11.0Y4.0F3000S231
G1X12.0Y4.0F3000S230
G1X14.0Y4.0F3000S229
G1X16.0Y4.0F3000S230
G1X17.0Y4.0F3000S231
G1X19.0Y4.0F3000S230
G1X22.0Y4.0F3000S231
G1X23.0Y4.0F3000S230
G1X29.0Y4.0F3000S231
G1X31.0Y4.0F3000S233
G1X33.0Y4.0F3000S232
G1X34.0Y4.0F3000S231
G1X39.0Y4.0F3000S232
G1X40.0Y4.0F3000S233
G1X42.0Y4.0F3000S232
G1X44.0Y4.0F3000S233
G1X45.0Y4.0F3000S232
G1X48.0Y4.0F3000S231
G1X49.0Y4.0F3000S234
G1X50.0Y4.0F3000S230
G1X51.0Y4.0F3000S231
G1X52.0Y4.0F3000S233
G1X53.0Y4.0F3000S232
G1X55.0Y4.0F3000S233
G1X56.0Y4.0F3000S231
G1X58.0Y4.0F3000S230
G1X60.0Y4.0F3000S231
G1X61.0Y4.0F3000S230
G1X62.0Y4.0F3000S229
G1X63.0Y4.0F3000S177
G1X64.0Y4.0F3000S222
G1X65.0Y4.0F3000S176
G1X66.0Y4.0F3000S229
G1X67.0Y4.0F3000S227
G1X71.0Y4.0F3000S228
G1X72.0Y4.0F3000S226
G1X75.0Y4.0F3000S227
G1X76.0Y4.0F3000S228
G1X80.0Y4.0F3000S229
G1X84.0Y4.0F3000S228
G1X85.0Y4.0F3000S224
G1X86.0Y4.0F3000S189
G1X87.0Y4.0F3000S225
G1X88.0Y4.0F3000S226
G1X89.0Y4.0F3000S224
G1X90.0Y4.0F3000S223
G1X91.0Y4.0F3000S230
G1X92.0Y4.0F3000S228
G1X94.0Y4.0F3000S226
G1X96.0Y4.0F3000S225
G1X97.0Y4.0F3000S227
G1X98.0Y4.0F3000S224
G1X99.0Y4.0F3000S220
G1X101.0Y4.0F3000S225
G1X103.0Y4.0F3000S228
G1X104.0Y4.0F3000S227
G1X105.0Y4.0F3000S228
G1X109.0Y4.0F3000S226
G1X111.0Y4.0F3000S227
G1X117.0Y4.0F3000S226
G1X119.0Y4.0F3000S225
G1X122.0Y4.0F3000S226
G1X123.0Y4.0F3000S225
G1X125.0Y4.0F3000S224
G1X126.0Y4.0F3000S225
G1X127.0Y4.0F3000S226
G1X129.0Y4.0F3000S224
G1X130.0Y4.0F3000S223
G1X132.0Y4.0F3000S222
G1X134.0Y4.0F3000S223
G1X137.0Y4.0F3000S221
G1X138.0Y4.0F3000S217
G1X139.0Y4.0F3000S221
G1X142.0Y4.0F3000S220
G1X143.0Y4.0F3000S221
G1X144.0Y4.0F3000S220
G1X145.0Y4.0F3000S219
G0X145.0Y5.0 
G1X143.0Y5.0F3000S220
G1X139.0Y5.0F3000S221
G1X138.0Y5.0F3000S222
G1X137.0Y5.0F3000S217
G1X135.0Y5.0F3000S221
G1X133.0Y5.0F3000S223
G1X132.0Y5.0F3000S224
G1X131.0Y5.0F3000S223
G1X128.0Y5.0F3000S224
G1X127.0Y5.0F3000S225
G1X126.0Y5.0F3000S226
G1X125.0Y5.0F3000S225
G1X123.0Y5.0F3000S224
G1X121.0Y5.0F3000S225
G1X118.0Y5.0F3000S226
G1X117.0Y5.0F3000S225
G1X115.0Y5.0F3000S226
G1X114.0Y5.0F3000S227
G1X113.0Y5.0F3000S225
G1X109.0Y5.0F3000S227
G1X108.0Y5.0F3000S228
G1X105.0Y5.0F3000S227
G1X103.0Y5.0F3000S229
G1X102.0Y5.0F3000S230
G1X101.0Y5.0F3000S231
G1X100.0Y5.0F3000S230
G1X99.0Y5.0F3000S218
G1X98.0Y5.0F3000S228
G1X93.0Y5.0F3000S231
G1X92.0Y5.0F3000S229
G1X91.0Y5.0F3000S230
G1X90.0Y5.0F3000S231
G1X89.0Y5.0F3000S227
G1X87.0Y5.0F3000S228
G1X86.0Y5.0F3000S225
G1X85.0Y5.0F3000S218
G1X82.0Y5.0F3000S229
G1X81.0Y5.0F3000S228
G1X76.0Y5.0F3000S229
G1X74.0Y5.0F3000S228
G1X72.0Y5.0F3000S230
G1X71.0Y5.0F3000S229
G1X67.0Y5.0F3000S230
G1X66.0Y5.0F3000S228
G1X65.0Y5.0F3000S230
G1X64.0Y5.0F3000S227
G1X63.0Y5.0F3000S217
G1X62.0Y5.0F3000S225
G1X61.0Y5.0F3000S228
G1X59.0Y5.0F3000S230
G1X58.0Y5.0F3000S231
G1X57.0Y5.0F3000S218
G1X56.0Y5.0F3000S224
G1X55.0Y5.0F3000S231
G1X54.0Y5.0F3000S233
G1X52.0Y5.0F3000S234
G1X51.0Y5.0F3000S233
G1X50.0Y5.0F3000S232
G1X49.0Y5.0F3000S233
G1X48.0Y5.0F3000S232
G1X47.0Y5.0F3000S230
G1X45.0Y5.0F3000S231
G1X44.0Y5.0F3000S230
G1X43.0Y5.0F3000S232
G1X40.0Y5.0F3000S231
G1X39.0Y5.0F3000S233
G1X34.0Y5.0F3000S232
G1X33.0Y5.0F3000S231
G1X30.0Y5.0F3000S232
G1X29.0Y5.0F3000S233
G1X28.0Y5.0F3000S229
G1X27.0Y5.0F3000S230
G1X26.0Y5.0F3000S231
G1X23.0Y5.0F3000S230
G1X22.0Y5.0F3000S229
G1X21.0Y5.0F3000S230
G1X18.0Y5.0F3000S231
G1X17.0Y5.0F3000S229
G1X16.0Y5.0F3000S228
G1X14.0Y5.0F3000S229
G1X11.0Y5.0F3000S230
G1X9.0Y5.0F3000S229
G1X8.0Y5.0F3000S214
G1X7.0Y5.0F3000S142
G1X6.0Y5.0F3000S124
G1X5.0Y5.0F3000S113
G1X4.0Y5.0F3000S103
G1X3.0Y5.0F3000S87
G1X2.0Y5.0F3000S78
G1X1.0Y5.0F3000S67
G1X0.0Y5.0F3000
G1X1.0Y6.0F3000S52
G1X2.0Y6.0F3000S54
G1X3.0Y6.0F3000S57
G1X4.0Y6.0F3000S53
G1X5.0Y6.0F3000S52
G1X6.0Y6.0F3000S51
G1X7.0Y6.0F3000S52
G1X8.0Y6.0F3000S66
G1X9.0Y6.0F3000S176
G1X10.0Y6.0F3000S229
G1X11.0Y6.0F3000S230
G1X12.0Y6.0F3000S229
G1X13.0Y6.0F3000S230
G1X14.0Y6.0F3000S208
G1X15.0Y6.0F3000S213
G1X16.0Y6.0F3000S221
G1X17.0Y6.0F3000S224
G1X18.0Y6.0F3000S227
G1X21.0Y6.0F3000S228
G1X22.0Y6.0F3000S229
G1X23.0Y6.0F3000S228
G1X24.0Y6.0F3000S230
G1X26.0Y6.0F3000S231
G1X29.0Y6.0F3000S230
G1X31.0Y6.0F3000S233
G1X32.0Y6.0F3000S231
G1X33.0Y6.0F3000S232
G1X34.0Y6.0F3000S231
G1X37.0Y6.0F3000S232
G1X39.0Y6.0F3000S231
G1X40.0Y6.0F3000S232
G1X44.0Y6.0F3000S231
G1X46.0Y6.0F3000S230
G1X47.0Y6.0F3000S229
G1X49.0Y6.0F3000S231
G1X50.0Y6.0F3000S232
G1X51.0Y6.0F3000S227
G1X52.0Y6.0F3000S232
G1X53.0Y6.0F3000S230
G1X54.0Y6.0F3000S231
G1X56.0Y6.0F3000S230
G1X57.0Y6.0F3000S226
G1X59.0Y6.0F3000S231
G1X60.0Y6.0F3000S230
G1X63.0Y6.0F3000S229
G1X64.0Y6.0F3000S223
G1X66.0Y6.0F3000S230
G1X67.0Y6.0F3000S229
G1X68.0Y6.0F3000S230
G1X70.0Y6.0F3000S229
G1X71.0Y6.0F3000S230
G1X75.0Y6.0F3000S229
G1X76.0Y6.0F3000S228
G1X78.0Y6.0F3000S229
G1X79.0Y6.0F3000S230
G1X80.0Y6.0F3000S229
G1X81.0Y6.0F3000S228
G1X83.0Y6.0F3000S229
G1X85.0Y6.0F3000S228
G1X86.0Y6.0F3000S222
G1X87.0Y6.0F3000S226
G1X88.0Y6.0F3000S229
G1X89.0Y6.0F3000S228
G1X90.0Y6.0F3000S227
G1X91.0Y6.0F3000S230
G1X93.0Y6.0F3000S229
G1X95.0Y6.0F3000S230
G1X96.0Y6.0F3000S231
G1X97.0Y6.0F3000S230
G1X98.0Y6.0F3000S231
G1X99.0Y6.0F3000S232
G1X100.0Y6.0F3000S224
G1X101.0Y6.0F3000S230
G1X102.0Y6.0F3000S231
G1X103.0Y6.0F3000S229
G1X105.0Y6.0F3000S228
G1X106.0Y6.0F3000S226
G1X108.0Y6.0F3000S227
G1X110.0Y6.0F3000S226
G1X112.0Y6.0F3000S227
G1X113.0Y6.0F3000S226
G1X117.0Y6.0F3000S227
G1X118.0Y6.0F3000S225
G1X120.0Y6.0F3000S227
G1X121.0Y6.0F3000S225
G1X122.0Y6.0F3000S226
G1X125.0Y6.0F3000S225
G1X126.0Y6.0F3000S227
G1X127.0Y6.0F3000S226
G1X129.0Y6.0F3000S225
G1X133.0Y6.0F3000S224
G1X134.0Y6.0F3000S223
G1X137.0Y6.0F3000S222
G1X138.0Y6.0F3000S218
G1X141.0Y6.0F3000S222
G1X145.0Y6.0F3000S221
G0X145.0Y7.0 
G1X144.0Y7.0F3000S220
G1X142.0Y7.0F3000S221
G1X141.0Y7.0F3000S222
G1X139.0Y7.0F3000S221
G1X138.0Y7.0F3000S222
G1X137.0Y7.0F3000S220
G1X136.0Y7.0F3000S222
G1X135.0Y7.0F3000S223
G1X134.0Y7.0F3000S222
G1X129.0Y7.0F3000S224
G1X128.0Y7.0F3000S225
G1X127.0Y7.0F3000S226
G1X126.0Y7.0F3000S227
G1X123.0Y7.0F3000S226
G1X122.0Y7.0F3000S225
G1X121.0Y7.0F3000S227
G1X120.0Y7.0F3000S225
G1X119.0Y7.0F3000S227
G1X118.0Y7.0F3000S228
G1X117.0Y7.0F3000S226
G1X112.0Y7.0F3000S227
G1X111.0Y7.0F3000S226
G1X110.0Y7.0F3000S227
G1X109.0Y7.0F3000S226
G1X106.0Y7.0F3000S227
G1X105.0Y7.0F3000S226
G1X102.0Y7.0F3000S229
G1X100.0Y7.0F3000S230
G1X98.0Y7.0F3000S231
G1X95.0Y7.0F3000S230
G1X94.0Y7.0F3000S231
G1X92.0Y7.0F3000S229
G1X90.0Y7.0F3000S228
G1X89.0Y7.0F3000S224
G1X88.0Y7.0F3000S227
G1X87.0Y7.0F3000S228
G1X86.0Y7.0F3000S227
G1X85.0Y7.0F3000S221
G1X83.0Y7.0F3000S228
G1X80.0Y7.0F3000S229
G1X78.0Y7.0F3000S230
G1X77.0Y7.0F3000S229
G1X76.0Y7.0F3000S230
G1X75.0Y7.0F3000S229
G1X74.0Y7.0F3000S230
G1X73.0Y7.0F3000S231
G1X71.0Y7.0F3000S229
G1X70.0Y7.0F3000S228
G1X68.0Y7.0F3000S229
G1X67.0Y7.0F3000S230
G1X66.0Y7.0F3000S229
G1X64.0Y7.0F3000S230
G1X62.0Y7.0F3000S229
G1X61.0Y7.0F3000S228
G1X58.0Y7.0F3000S229
G1X53.0Y7.0F3000S231
G1X52.0Y7.0F3000S232
G1X51.0Y7.0F3000S231
G1X50.0Y7.0F3000S230
G1X48.0Y7.0F3000S231
G1X47.0Y7.0F3000S230
G1X46.0Y7.0F3000S229
G1X45.0Y7.0F3000S230
G1X44.0Y7.0F3000S229
G1X41.0Y7.0F3000S230
G1X40.0Y7.0F3000S229
G1X39.0Y7.0F3000S231
G1X38.0Y7.0F3000S230
G1X37.0Y7.0F3000S231
G1X36.0Y7.0F3000S232
G1X34.0Y7.0F3000S231
G1X31.0Y7.0F3000S230
G1X30.0Y7.0F3000S232
G1X29.0Y7.0F3000S233
G1X28.0Y7.0F3000S229
G1X27.0Y7.0F3000S230
G1X25.0Y7.0F3000S229
G1X23.0Y7.0F3000S228
G1X22.0Y7.0F3000S211
G1X21.0Y7.0F3000S177
G1X20.0Y7.0F3000S176
G1X19.0Y7.0F3000S151
G1X18.0Y7.0F3000S171
G1X17.0Y7.0F3000S229
G1X15.0Y7.0F3000S133
G1X14.0Y7.0F3000S145
G1X13.0Y7.0F3000S167
G1X10.0Y7.0F3000S229
G1X9.0Y7.0F3000S228
G1X8.0Y7.0F3000S179
G1X7.0Y7.0F3000S117
G1X6.0Y7.0F3000S109
G1X5.0Y7.0F3000S142
G1X4.0Y7.0F3000S122
G1X3.0Y7.0F3000S108
G1X2.0Y7.0F3000S63
G1X0.0Y7.0F3000
G1X1.0Y8.0F3000S75
G1X2.0Y8.0F3000S121
G1X3.0Y8.0F3000S125
G1X4.0Y8.0F3000S117
G1X5.0Y8.0F3000S138
G1X6.0Y8.0F3000S154
G1X7.0Y8.0F3000S129
G1X8.0Y8.0F3000S125
G1X9.0Y8.0F3000S179
G1X10.0Y8.0F3000S229
G1X13.0Y8.0F3000S230
G1X14.0Y8.0F3000S173
G1X16.0Y8.0F3000S135
G1X17.0Y8.0F3000S129
G1X18.0Y8.0F3000S222
G1X19.0Y8.0F3000S142
G1X20.0Y8.0F3000S145
G1X21.0Y8.0F3000S138
G1X22.0Y8.0F3000S174
G1X23.0Y8.0F3000S206
G1X24.0Y8.0F3000S207
G1X25.0Y8.0F3000S212
G1X26.0Y8.0F3000S203
G1X27.0Y8.0F3000S229
G1X28.0Y8.0F3000S121
G1X29.0Y8.0F3000S109
G1X30.0Y8.0F3000S114
G1X31.0Y8.0F3000S134
G1X32.0Y8.0F3000S111
G1X33.0Y8.0F3000S108
G1X34.0Y8.0F3000S203
G1X35.0Y8.0F3000S145
G1X36.0Y8.0F3000S194
G1X37.0Y8.0F3000S228
G1X38.0Y8.0F3000S231
G1X39.0Y8.0F3000S230
G1X40.0Y8.0F3000S229
G1X42.0Y8.0F3000S228
G1X43.0Y8.0F3000S227
G1X44.0Y8.0F3000S228
G1X45.0Y8.0F3000S227
G1X46.0Y8.0F3000S228
G1X47.0Y8.0F3000S227
G1X48.0Y8.0F3000S229
G1X49.0Y8.0F3000S230
G1X50.0Y8.0F3000S231
G1X51.0Y8.0F3000S230
G1X57.0Y8.0F3000S231
G1X59.0Y8.0F3000S230
G1X62.0Y8.0F3000S229
G1X63.0Y8.0F3000S230
G1X65.0Y8.0F3000S229
G1X66.0Y8.0F3000S231
G1X67.0Y8.0F3000S230
G1X70.0Y8.0F3000S231
G1X75.0Y8.0F3000S230
G1X77.0Y8.0F3000S229
G1X78.0Y8.0F3000S230
G1X80.0Y8.0F3000S229
G1X85.0Y8.0F3000S228
G1X86.0Y8.0F3000S229
G1X87.0Y8.0F3000S228
G1X88.0Y8.0F3000S229
G1X89.0Y8.0F3000S228
G1X90.0Y8.0F3000S229
G1X92.0Y8.0F3000S228
G1X94.0Y8.0F3000S229
G1X98.0Y8.0F3000S230
G1X99.0Y8.0F3000S231
G1X100.0Y8.0F3000S230
G1X101.0Y8.0F3000S231
G1X102.0Y8.0F3000S230
G1X105.0Y8.0F3000S229
G1X106.0Y8.0F3000S226
G1X108.0Y8.0F3000S227
G1X109.0Y8.0F3000S226
G1X110.0Y8.0F3000S227
G1X111.0Y8.0F3000S228
G1X112.0Y8.0F3000S227
G1X114.0Y8.0F3000S226
G1X115.0Y8.0F3000S227
G1X116.0Y8.0F3000S226
G1X117.0Y8.0F3000S227
G1X118.0Y8.0F3000S225
G1X120.0Y8.0F3000S227
G1X126.0Y8.0F3000S226
G1X128.0Y8.0F3000S225
G1X129.0Y8.0F3000S226
G1X131.0Y8.0F3000S225
G1X134.0Y8.0F3000S224
G1X135.0Y8.0F3000S223
G1X136.0Y8.0F3000S222
G1X141.0Y8.0F3000S221
G1X143.0Y8.0F3000S222
G1X144.0Y8.0F3000S220
G1X145.0Y8.0F3000S221
G0X145.0Y9.0 
G1X143.0Y9.0F3000S220
G1X142.0Y9.0F3000S219
G1X141.0Y9.0F3000S220
G1X139.0Y9.0F3000S221
G1X138.0Y9.0F3000S220
G1X137.0Y9.0F3000S222
G1X136.0Y9.0F3000S220
G1X135.0Y9.0F3000S222
G1X133.0Y9.0F3000S223
G1X132.0Y9.0F3000S225
G1X129.0Y9.0F3000S224
G1X127.0Y9.0F3000S225
G1X126.0Y9.0F3000S226
G1X125.0Y9.0F3000S227
G1X122.0Y9.0F3000S226
G1X121.0Y9.0F3000S227
G1X119.0Y9.0F3000S226
G1X118.0Y9.0F3000S227
G1X117.0Y9.0F3000S226
G1X114.0Y9.0F3000S227
G1X113.0Y9.0F3000S228
G1X111.0Y9.0F3000S227
G1X110.0Y9.0F3000S228
G1X109.0Y9.0F3000S227
G1X108.0Y9.0F3000S226
G1X107.0Y9.0F3000S227
G1X106.0Y9.0F3000S226
G1X105.0Y9.0F3000S225
G1X103.0Y9.0F3000S228
G1X101.0Y9.0F3000S229
G1X100.0Y9.0F3000S231
G1X97.0Y9.0F3000S230
G1X96.0Y9.0F3000S229
G1X94.0Y9.0F3000S230
G1X91.0Y9.0F3000S229
G1X90.0Y9.0F3000S227
G1X86.0Y9.0F3000S228
G1X85.0Y9.0F3000S229
G1X84.0Y9.0F3000S227
G1X82.0Y9.0F3000S228
G1X78.0Y9.0F3000S229
G1X77.0Y9.0F3000S230
G1X76.0Y9.0F3000S229
G1X75.0Y9.0F3000S228
G1X73.0Y9.0F3000S229
G1X72.0Y9.0F3000S230
G1X71.0Y9.0F3000S229
G1X68.0Y9.0F3000S230
G1X67.0Y9.0F3000S229
G1X66.0Y9.0F3000S230
G1X58.0Y9.0F3000S229
G1X57.0Y9.0F3000S230
G1X56.0Y9.0F3000S231
G1X54.0Y9.0F3000S230
G1X53.0Y9.0F3000S231
G1X50.0Y9.0F3000S230
G1X49.0Y9.0F3000S231
G1X48.0Y9.0F3000S230
G1X47.0Y9.0F3000S135
G1X46.0Y9.0F3000S105
G1X45.0Y9.0F3000S94
G1X44.0Y9.0F3000S85
G1X43.0Y9.0F3000S70
G1X42.0Y9.0F3000S54
G1X41.0Y9.0F3000S37
G1X40.0Y9.0F3000S29
G1X39.0Y9.0F3000S224
G1X38.0Y9.0F3000S230
G1X37.0Y9.0F3000S231
G1X36.0Y9.0F3000S227
G1X35.0Y9.0F3000S215
G1X34.0Y9.0F3000S228
G1X33.0Y9.0F3000S226
G1X32.0Y9.0F3000S136
G1X31.0Y9.0F3000S141
G1X30.0Y9.0F3000S134
G1X29.0Y9.0F3000S157
G1X28.0Y9.0F3000S153
G1X27.0Y9.0F3000S157
G1X26.0Y9.0F3000S228
G1X25.0Y9.0F3000S203
G1X24.0Y9.0F3000S210
G1X23.0Y9.0F3000S209
G1X22.0Y9.0F3000S187
G1X21.0Y9.0F3000S134
G1X20.0Y9.0F3000S140
G1X19.0Y9.0F3000S143
G1X18.0Y9.0F3000S179
G1X17.0Y9.0F3000S225
G1X16.0Y9.0F3000S168
G1X15.0Y9.0F3000S154
G1X14.0Y9.0F3000S164
G1X13.0Y9.0F3000S179
G1X12.0Y9.0F3000S232
G1X10.0Y9.0F3000S230
G1X9.0Y9.0F3000S229
G1X8.0Y9.0F3000S166
G1X7.0Y9.0F3000S95
G1X6.0Y9.0F3000S92
G1X5.0Y9.0F3000S115
G1X4.0Y9.0F3000S136
G1X3.0Y9.0F3000S133
G1X2.0Y9.0F3000S171
G1X1.0Y9.0F3000S167
G1X0.0Y9.0F3000
G1X1.0Y10.0F3000S229
G1X4.0Y10.0F3000S226
G1X6.0Y10.0F3000S224
G1X7.0Y10.0F3000S225
G1X8.0Y10.0F3000S223
G1X9.0Y10.0F3000S225
G1X10.0Y10.0F3000S227
G1X11.0Y10.0F3000S224
G1X12.0Y10.0F3000S221
G1X13.0Y10.0F3000S218
G1X14.0Y10.0F3000S206
G1X15.0Y10.0F3000S189
G1X16.0Y10.0F3000S186
G1X17.0Y10.0F3000S163
G1X18.0Y10.0F3000S231
G1X19.0Y10.0F3000S209
G1X20.0Y10.0F3000S170
G1X21.0Y10.0F3000S138
G1X22.0Y10.0F3000S153
G1X23.0Y10.0F3000S201
G1X24.0Y10.0F3000S214
G1X25.0Y10.0F3000S207
G1X26.0Y10.0F3000S204
G1X27.0Y10.0F3000S224
G1X28.0Y10.0F3000S155
G1X29.0Y10.0F3000S153
G1X30.0Y10.0F3000S163
G1X31.0Y10.0F3000S158
G1X32.0Y10.0F3000S152
G1X33.0Y10.0F3000S182
G1X34.0Y10.0F3000S222
G1X35.0Y10.0F3000S211
G1X37.0Y10.0F3000S230
G1X38.0Y10.0F3000S231
G1X39.0Y10.0F3000S230
G1X40.0Y10.0F3000S224
G1X41.0Y10.0F3000S21
G1X42.0Y10.0F3000S15
G1X43.0Y10.0F3000S23
G1X44.0Y10.0F3000S36
G1X45.0Y10.0F3000S40
G1X46.0Y10.0F3000S29
G1X47.0Y10.0F3000S79
G1X48.0Y10.0F3000S45
G1X49.0Y10.0F3000S229
G1X52.0Y10.0F3000S230
G1X53.0Y10.0F3000S148
G1X54.0Y10.0F3000S179
G1X55.0Y10.0F3000S184
G1X56.0Y10.0F3000S210
G1X57.0Y10.0F3000S227
G1X58.0Y10.0F3000S181
G1X59.0Y10.0F3000S178
G1X60.0Y10.0F3000S188
G1X61.0Y10.0F3000S229
G1X66.0Y10.0F3000S228
G1X69.0Y10.0F3000S229
G1X71.0Y10.0F3000S228
G1X74.0Y10.0F3000S229
G1X75.0Y10.0F3000S230
G1X76.0Y10.0F3000S228
G1X79.0Y10.0F3000S229
G1X80.0Y10.0F3000S230
G1X83.0Y10.0F3000S228
G1X85.0Y10.0F3000S227
G1X86.0Y10.0F3000S229
G1X87.0Y10.0F3000S228
G1X90.0Y10.0F3000S227
G1X92.0Y10.0F3000S228
G1X93.0Y10.0F3000S229
G1X95.0Y10.0F3000S228
G1X97.0Y10.0F3000S230
G1X99.0Y10.0F3000S229
G1X100.0Y10.0F3000S230
G1X102.0Y10.0F3000S229
G1X103.0Y10.0F3000S228
G1X104.0Y10.0F3000S227
G1X105.0Y10.0F3000S228
G1X107.0Y10.0F3000S226
G1X108.0Y10.0F3000S227
G1X109.0Y10.0F3000S226
G1X113.0Y10.0F3000S227
G1X115.0Y10.0F3000S228
G1X117.0Y10.0F3000S227
G1X118.0Y10.0F3000S226
G1X120.0Y10.0F3000S227
G1X121.0Y10.0F3000S225
G1X123.0Y10.0F3000S226
G1X125.0Y10.0F3000S225
G1X126.0Y10.0F3000S226
G1X128.0Y10.0F3000S225
G1X129.0Y10.0F3000S223
G1X130.0Y10.0F3000S224
G1X131.0Y10.0F3000S223
G1X132.0Y10.0F3000S222
G1X133.0Y10.0F3000S224
G1X134.0Y10.0F3000S222
G1X135.0Y10.0F3000S220
G1X136.0Y10.0F3000S221
G1X137.0Y10.0F3000S220
G1X138.0Y10.0F3000S221
G1X139.0Y10.0F3000S220
G1X140.0Y10.0F3000S219
G1X141.0Y10.0F3000S220
G1X142.0Y10.0F3000S221
G1X143.0Y10.0F3000S218
G1X145.0Y10.0F3000S219
G0X145.0Y11.0 
G1X143.0Y11.0F3000S219
G1X142.0Y11.0F3000S218
G1X139.0Y11.0F3000S219
G1X138.0Y11.0F3000S220
G1X137.0Y11.0F3000S222
G1X136.0Y11.0F3000S221
G1X134.0Y11.0F3000S222
G1X133.0Y11.0F3000S221
G1X130.0Y11.0F3000S223
G1X129.0Y11.0F3000S222
G1X128.0Y11.0F3000S223
G1X127.0Y11.0F3000S224
G1X126.0Y11.0F3000S225
G1X125.0Y11.0F3000S224
G1X124.0Y11.0F3000S225
G1X122.0Y11.0F3000S224
G1X117.0Y11.0F3000S225
G1X116.0Y11.0F3000S227
G1X115.0Y11.0F3000S228
G1X111.0Y11.0F3000S227
G1X109.0Y11.0F3000S228
G1X106.0Y11.0F3000S226
G1X105.0Y11.0F3000S225
G1X104.0Y11.0F3000S226
G1X97.0Y11.0F3000S227
G1X96.0Y11.0F3000S228
G1X95.0Y11.0F3000S229
G1X93.0Y11.0F3000S227
G1X92.0Y11.0F3000S226
G1X91.0Y11.0F3000S225
G1X89.0Y11.0F3000S226
G1X88.0Y11.0F3000S227
G1X87.0Y11.0F3000S226
G1X85.0Y11.0F3000S228
G1X84.0Y11.0F3000S226
G1X83.0Y11.0F3000S227
G1X82.0Y11.0F3000S226
G1X81.0Y11.0F3000S227
G1X80.0Y11.0F3000S226
G1X79.0Y11.0F3000S227
G1X76.0Y11.0F3000S226
G1X74.0Y11.0F3000S227
G1X72.0Y11.0F3000S228
G1X71.0Y11.0F3000S197
G1X70.0Y11.0F3000S100
G1X69.0Y11.0F3000S115
G1X68.0Y11.0F3000S174
G1X67.0Y11.0F3000S169
G1X66.0Y11.0F3000S184
G1X65.0Y11.0F3000S213
G1X64.0Y11.0F3000S186
G1X63.0Y11.0F3000S220
G1X61.0Y11.0F3000S227
G1X60.0Y11.0F3000S228
G1X59.0Y11.0F3000S178
G1X58.0Y11.0F3000S158
G1X57.0Y11.0F3000S151
G1X56.0Y11.0F3000S230
G1X55.0Y11.0F3000S231
G1X54.0Y11.0F3000S183
G1X53.0Y11.0F3000S168
G1X52.0Y11.0F3000S162
G1X49.0Y11.0F3000S230
G1X48.0Y11.0F3000S228
G1X47.0Y11.0F3000S77
G1X46.0Y11.0F3000S145
G1X45.0Y11.0F3000S64
G1X44.0Y11.0F3000S84
G1X43.0Y11.0F3000S82
G1X42.0Y11.0F3000S61
G1X41.0Y11.0F3000S27
G1X40.0Y11.0F3000S35
G1X39.0Y11.0F3000S226
G1X38.0Y11.0F3000S231
G1X37.0Y11.0F3000S232
G1X36.0Y11.0F3000S230
G1X35.0Y11.0F3000S229
G1X34.0Y11.0F3000S225
G1X33.0Y11.0F3000S221
G1X32.0Y11.0F3000S178
G1X31.0Y11.0F3000S152
G1X30.0Y11.0F3000S169
G1X28.0Y11.0F3000S164
G1X27.0Y11.0F3000S165
G1X26.0Y11.0F3000S203
G1X25.0Y11.0F3000S198
G1X24.0Y11.0F3000S205
G1X23.0Y11.0F3000S206
G1X22.0Y11.0F3000S208
G1X20.0Y11.0F3000S203
G1X19.0Y11.0F3000S204
G1X18.0Y11.0F3000S205
G1X17.0Y11.0F3000S212
G1X16.0Y11.0F3000S217
G1X15.0Y11.0F3000S215
G1X14.0Y11.0F3000S219
G1X13.0Y11.0F3000S210
G1X12.0Y11.0F3000S224
G1X11.0Y11.0F3000S227
G1X10.0Y11.0F3000S228
G1X9.0Y11.0F3000S227
G1X7.0Y11.0F3000S228
G1X6.0Y11.0F3000S229
G1X5.0Y11.0F3000S230
G1X4.0Y11.0F3000S229
G1X3.0Y11.0F3000S225
G1X2.0Y11.0F3000S227
G1X0.0Y11.0F3000
G1X1.0Y12.0F3000S230
G1X2.0Y12.0F3000S229
G1X3.0Y12.0F3000S227
G1X4.0Y12.0F3000S226
G1X5.0Y12.0F3000S208
G1X9.0Y12.0F3000S225
G1X10.0Y12.0F3000S227
G1X11.0Y12.0F3000S217
G1X12.0Y12.0F3000S204
G1X13.0Y12.0F3000S199
G1X14.0Y12.0F3000S204
G1X15.0Y12.0F3000S207
G1X17.0Y12.0F3000S205
G1X18.0Y12.0F3000S203
G1X19.0Y12.0F3000S200
G1X20.0Y12.0F3000S199
G1X21.0Y12.0F3000S193
G1X22.0Y12.0F3000S190
G1X23.0Y12.0F3000S186
G1X24.0Y12.0F3000S176
G1X25.0Y12.0F3000S165
G1X26.0Y12.0F3000S158
G1X27.0Y12.0F3000S151
G1X28.0Y12.0F3000S148
G1X29.0Y12.0F3000S143
G1X30.0Y12.0F3000S134
G1X31.0Y12.0F3000S124
G1X32.0Y12.0F3000S118
G1X33.0Y12.0F3000S116
G1X34.0Y12.0F3000S136
G1X35.0Y12.0F3000S172
G1X36.0Y12.0F3000S223
G1X37.0Y12.0F3000S226
G1X39.0Y12.0F3000S230
G1X40.0Y12.0F3000S229
G1X41.0Y12.0F3000S51
G1X42.0Y12.0F3000S40
G1X43.0Y12.0F3000S86
G1X44.0Y12.0F3000S139
G1X45.0Y12.0F3000S133
G1X46.0Y12.0F3000S96
G1X47.0Y12.0F3000S173
G1X48.0Y12.0F3000S124
G1X49.0Y12.0F3000S229
G1X52.0Y12.0F3000S230
G1X53.0Y12.0F3000S183
G1X54.0Y12.0F3000S184
G1X55.0Y12.0F3000S155
G1X56.0Y12.0F3000S231
G1X57.0Y12.0F3000S230
G1X58.0Y12.0F3000S154
G1X59.0Y12.0F3000S189
G1X60.0Y12.0F3000S188
G1X63.0Y12.0F3000S227
G1X64.0Y12.0F3000S222
G1X65.0Y12.0F3000S212
G1X66.0Y12.0F3000S189
G1X67.0Y12.0F3000S159
G1X68.0Y12.0F3000S133
G1X69.0Y12.0F3000S158
G1X70.0Y12.0F3000S132
G1X71.0Y12.0F3000S91
G1X72.0Y12.0F3000S184
G1X74.0Y12.0F3000S228
G1X75.0Y12.0F3000S226
G1X76.0Y12.0F3000S160
G1X77.0Y12.0F3000S144
G1X78.0Y12.0F3000S141
G1X79.0Y12.0F3000S150
G1X80.0Y12.0F3000S223
G1X81.0Y12.0F3000S140
G1X82.0Y12.0F3000S187
G1X83.0Y12.0F3000S182
G1X85.0Y12.0F3000S226
G1X86.0Y12.0F3000S227
G1X87.0Y12.0F3000S223
G1X88.0Y12.0F3000S175
G1X89.0Y12.0F3000S221
G1X90.0Y12.0F3000S163
G1X91.0Y12.0F3000S151
G1X92.0Y12.0F3000S145
G1X93.0Y12.0F3000S140
G1X94.0Y12.0F3000S186
G1X95.0Y12.0F3000S203
G1X97.0Y12.0F3000S228
G1X98.0Y12.0F3000S227
G1X99.0Y12.0F3000S226
G1X100.0Y12.0F3000S223
G1X101.0Y12.0F3000S225
G1X102.0Y12.0F3000S224
G1X103.0Y12.0F3000S225
G1X104.0Y12.0F3000S223
G1X105.0Y12.0F3000S220
G1X106.0Y12.0F3000S215
G1X107.0Y12.0F3000S224
G1X109.0Y12.0F3000S226
G1X110.0Y12.0F3000S227
G1X111.0Y12.0F3000S226
G1X114.0Y12.0F3000S227
G1X115.0Y12.0F3000S224
G1X117.0Y12.0F3000S225
G1X119.0Y12.0F3000S223
G1X121.0Y12.0F3000S225
G1X122.0Y12.0F3000S226
G1X123.0Y12.0F3000S225
G1X124.0Y12.0F3000S224
G1X125.0Y12.0F3000S222
G1X126.0Y12.0F3000S223
G1X128.0Y12.0F3000S221
G1X129.0Y12.0F3000S220
G1X130.0Y12.0F3000S221
G1X133.0Y12.0F3000S220
G1X138.0Y12.0F3000S221
G1X141.0Y12.0F3000S219
G1X144.0Y12.0F3000S218
G1X145.0Y12.0F3000S217
G0X145.0Y13.0 
G1X142.0Y13.0F3000S215
G1X141.0Y13.0F3000S216
G1X140.0Y13.0F3000S217
G1X137.0Y13.0F3000S219
G1X136.0Y13.0F3000S220
G1X135.0Y13.0F3000S219
G1X133.0Y13.0F3000S220
G1X132.0Y13.0F3000S219
G1X131.0Y13.0F3000S83
G1X130.0Y13.0F3000S88
G1X129.0Y13.0F3000S102
G1X128.0Y13.0F3000S113
G1X127.0Y13.0F3000S121
G1X126.0Y13.0F3000S127
G1X125.0Y13.0F3000S140
G1X124.0Y13.0F3000S158
G1X123.0Y13.0F3000S192
G1X122.0Y13.0F3000S223
G1X121.0Y13.0F3000S225
G1X120.0Y13.0F3000S223
G1X119.0Y13.0F3000S225
G1X118.0Y13.0F3000S83
G1X117.0Y13.0F3000S66
G1X116.0Y13.0F3000S125
G1X115.0Y13.0F3000S106
G1X114.0Y13.0F3000S118
G1X113.0Y13.0F3000S214
G1X112.0Y13.0F3000S137
G1X111.0Y13.0F3000S145
G1X110.0Y13.0F3000S199
G1X109.0Y13.0F3000S227
G1X107.0Y13.0F3000S226
G1X106.0Y13.0F3000S206
G1X104.0Y13.0F3000S110
G1X103.0Y13.0F3000S106
G1X102.0Y13.0F3000S125
G1X101.0Y13.0F3000S145
G1X100.0Y13.0F3000S146
G1X99.0Y13.0F3000S164
G1X98.0Y13.0F3000S184
G1X97.0Y13.0F3000S225
G1X95.0Y13.0F3000S228
G1X94.0Y13.0F3000S202
G1X93.0Y13.0F3000S199
G1X92.0Y13.0F3000S150
G1X91.0Y13.0F3000S74
G1X90.0Y13.0F3000S57
G1X89.0Y13.0F3000S69
G1X88.0Y13.0F3000S211
G1X87.0Y13.0F3000S116
G1X86.0Y13.0F3000S213
G1X83.0Y13.0F3000S225
G1X82.0Y13.0F3000S164
G1X81.0Y13.0F3000S183
G1X80.0Y13.0F3000S119
G1X79.0Y13.0F3000S222
G1X78.0Y13.0F3000S92
G1X77.0Y13.0F3000S114
G1X76.0Y13.0F3000S113
G1X75.0Y13.0F3000S130
G1X74.0Y13.0F3000S227
G1X73.0Y13.0F3000S228
G1X72.0Y13.0F3000S226
G1X71.0Y13.0F3000S187
G1X70.0Y13.0F3000S122
G1X69.0Y13.0F3000S164
G1X68.0Y13.0F3000S100
G1X67.0Y13.0F3000S110
G1X66.0Y13.0F3000S157
G1X65.0Y13.0F3000S215
G1X64.0Y13.0F3000S222
G1X63.0Y13.0F3000S219
G1X62.0Y13.0F3000S227
G1X61.0Y13.0F3000S225
G1X60.0Y13.0F3000S226
G1X59.0Y13.0F3000S196
G1X58.0Y13.0F3000S195
G1X57.0Y13.0F3000S191
G1X55.0Y13.0F3000S231
G1X54.0Y13.0F3000S174
G1X53.0Y13.0F3000S170
G1X52.0Y13.0F3000S190
G1X51.0Y13.0F3000S231
G1X50.0Y13.0F3000S230
G1X49.0Y13.0F3000S231
G1X48.0Y13.0F3000S229
G1X47.0Y13.0F3000S204
G1X46.0Y13.0F3000S211
G1X45.0Y13.0F3000S213
G1X44.0Y13.0F3000S214
G1X43.0Y13.0F3000S215
G1X42.0Y13.0F3000S219
G1X41.0Y13.0F3000S220
G1X40.0Y13.0F3000S190
G1X39.0Y13.0F3000S228
G1X38.0Y13.0F3000S224
G1X37.0Y13.0F3000S153
G1X36.0Y13.0F3000S83
G1X35.0Y13.0F3000S62
G1X34.0Y13.0F3000S76
G1X33.0Y13.0F3000S99
G1X32.0Y13.0F3000S119
G1X31.0Y13.0F3000S131
G1X30.0Y13.0F3000S137
G1X29.0Y13.0F3000S145
G1X28.0Y13.0F3000S142
G1X27.0Y13.0F3000S122
G1X26.0Y13.0F3000S112
G1X25.0Y13.0F3000S107
G1X24.0Y13.0F3000S168
G1X23.0Y13.0F3000S184
G1X22.0Y13.0F3000S191
G1X21.0Y13.0F3000S197
G1X20.0Y13.0F3000S201
G1X19.0Y13.0F3000S207
G1X18.0Y13.0F3000S214
G1X17.0Y13.0F3000S217
G1X16.0Y13.0F3000S218
G1X15.0Y13.0F3000S221
G1X14.0Y13.0F3000S222
G1X13.0Y13.0F3000S224
G1X12.0Y13.0F3000S225
G1X11.0Y13.0F3000S224
G1X10.0Y13.0F3000S222
G1X9.0Y13.0F3000S217
G1X8.0Y13.0F3000S202
G1X7.0Y13.0F3000S207
G1X6.0Y13.0F3000S225
G1X5.0Y13.0F3000S221
G1X4.0Y13.0F3000S222
G1X3.0Y13.0F3000S223
G1X0.0Y13.0F3000
G1X1.0Y14.0F3000S119
G1X2.0Y14.0F3000S130
G1X3.0Y14.0F3000S155
G1X4.0Y14.0F3000S204
G1X5.0Y14.0F3000S188
G1X6.0Y14.0F3000S198
G1X7.0Y14.0F3000S214
G1X8.0Y14.0F3000S219
G1X9.0Y14.0F3000S222
G1X10.0Y14.0F3000S228
G1X11.0Y14.0F3000S231
G1X13.0Y14.0F3000S230
G1X15.0Y14.0F3000S228
G1X16.0Y14.0F3000S223
G1X17.0Y14.0F3000S222
G1X18.0Y14.0F3000S219
G1X19.0Y14.0F3000S217
G1X20.0Y14.0F3000S212
G1X21.0Y14.0F3000S211
G1X22.0Y14.0F3000S207
G1X23.0Y14.0F3000S198
G1X24.0Y14.0F3000S135
G1X25.0Y14.0F3000S180
G1X26.0Y14.0F3000S171
G1X27.0Y14.0F3000S165
G1X28.0Y14.0F3000S162
G1X29.0Y14.0F3000S159
G1X30.0Y14.0F3000S153
G1X31.0Y14.0F3000S152
G1X32.0Y14.0F3000S146
G1X33.0Y14.0F3000S141
G1X34.0Y14.0F3000S135
G1X35.0Y14.0F3000S133
G1X36.0Y14.0F3000S132
G1X38.0Y14.0F3000S133
G1X39.0Y14.0F3000S127
G1X40.0Y14.0F3000S231
G1X42.0Y14.0F3000S230
G1X44.0Y14.0F3000S229
G1X45.0Y14.0F3000S225
G1X47.0Y14.0F3000S223
G1X48.0Y14.0F3000S222
G1X49.0Y14.0F3000S225
G1X51.0Y14.0F3000S226
G1X52.0Y14.0F3000S225
G1X53.0Y14.0F3000S229
G1X54.0Y14.0F3000S227
G1X55.0Y14.0F3000S216
G1X56.0Y14.0F3000S224
G1X57.0Y14.0F3000S187
G1X58.0Y14.0F3000S149
G1X59.0Y14.0F3000S130
G1X60.0Y14.0F3000S113
G1X61.0Y14.0F3000S99
G1X62.0Y14.0F3000S96
G1X63.0Y14.0F3000S93
G1X64.0Y14.0F3000S86
G1X65.0Y14.0F3000S78
G1X66.0Y14.0F3000S76
G1X67.0Y14.0F3000S74
G1X68.0Y14.0F3000S71
G1X69.0Y14.0F3000S114
G1X70.0Y14.0F3000S179
G1X71.0Y14.0F3000S155
G1X72.0Y14.0F3000S211
G1X74.0Y14.0F3000S227
G1X75.0Y14.0F3000S226
G1X76.0Y14.0F3000S119
G1X77.0Y14.0F3000S100
G1X78.0Y14.0F3000S112
G1X79.0Y14.0F3000S141
G1X80.0Y14.0F3000S222
G1X81.0Y14.0F3000S176
G1X82.0Y14.0F3000S219
G1X83.0Y14.0F3000S206
G1X84.0Y14.0F3000S225
G1X86.0Y14.0F3000S226
G1X87.0Y14.0F3000S209
G1X88.0Y14.0F3000S227
G1X89.0Y14.0F3000S209
G1X90.0Y14.0F3000S203
G1X91.0Y14.0F3000S70
G1X92.0Y14.0F3000S132
G1X93.0Y14.0F3000S228
G1X94.0Y14.0F3000S108
G1X95.0Y14.0F3000S204
G1X97.0Y14.0F3000S228
G1X98.0Y14.0F3000S226
G1X99.0Y14.0F3000S174
G1X100.0Y14.0F3000S138
G1X101.0Y14.0F3000S130
G1X102.0Y14.0F3000S128
G1X103.0Y14.0F3000S113
G1X104.0Y14.0F3000S131
G1X105.0Y14.0F3000S122
G1X106.0Y14.0F3000S123
G1X107.0Y14.0F3000S214
G1X110.0Y14.0F3000S226
G1X111.0Y14.0F3000S183
G1X112.0Y14.0F3000S143
G1X113.0Y14.0F3000S180
G1X114.0Y14.0F3000S206
G1X115.0Y14.0F3000S142
G1X116.0Y14.0F3000S136
G1X117.0Y14.0F3000S97
G1X118.0Y14.0F3000S63
G1X119.0Y14.0F3000S75
G1X120.0Y14.0F3000S224
G1X121.0Y14.0F3000S223
G1X122.0Y14.0F3000S224
G1X123.0Y14.0F3000S222
G1X124.0Y14.0F3000S78
G1X125.0Y14.0F3000S42
G1X126.0Y14.0F3000S23
G1X127.0Y14.0F3000S18
G1X129.0Y14.0F3000S22
G1X130.0Y14.0F3000S23
G1X131.0Y14.0F3000S29
G1X132.0Y14.0F3000S38
G1X133.0Y14.0F3000S219
G1X134.0Y14.0F3000S220
G1X135.0Y14.0F3000S221
G1X136.0Y14.0F3000S220
G1X137.0Y14.0F3000S206
G1X138.0Y14.0F3000S109
G1X139.0Y14.0F3000S213
G1X140.0Y14.0F3000S159
G1X141.0Y14.0F3000S97
G1X142.0Y14.0F3000S138
G1X143.0Y14.0F3000S87
G1X144.0Y14.0F3000S88
G1X145.0Y14.0F3000S95
G0X145.0Y15.0 
G1X144.0Y15.0F3000S173
G1X143.0Y15.0F3000S179
G1X142.0Y15.0F3000S129
G1X141.0Y15.0F3000S148
G1X140.0Y15.0F3000S112
G1X139.0Y15.0F3000S136
G1X138.0Y15.0F3000S213
G1X137.0Y15.0F3000S151
G1X136.0Y15.0F3000S220
G1X133.0Y15.0F3000S221
G1X132.0Y15.0F3000S220
G1X131.0Y15.0F3000S96
G1X130.0Y15.0F3000S87
G1X129.0Y15.0F3000S94
G1X128.0Y15.0F3000S91
G1X127.0Y15.0F3000S86
G1X126.0Y15.0F3000S89
G1X125.0Y15.0F3000S28
G1X124.0Y15.0F3000S42
G1X123.0Y15.0F3000S68
G1X122.0Y15.0F3000S222
G1X121.0Y15.0F3000S224
G1X119.0Y15.0F3000S223
G1X118.0Y15.0F3000S83
G1X117.0Y15.0F3000S55
G1X116.0Y15.0F3000S81
G1X115.0Y15.0F3000S149
G1X114.0Y15.0F3000S142
G1X113.0Y15.0F3000S212
G1X112.0Y15.0F3000S211
G1X111.0Y15.0F3000S133
G1X110.0Y15.0F3000S182
G1X109.0Y15.0F3000S227
G1X107.0Y15.0F3000S226
G1X106.0Y15.0F3000S220
G1X105.0Y15.0F3000S97
G1X104.0Y15.0F3000S148
G1X103.0Y15.0F3000S150
G1X102.0Y15.0F3000S126
G1X101.0Y15.0F3000S82
G1X100.0Y15.0F3000S106
G1X99.0Y15.0F3000S134
G1X98.0Y15.0F3000S165
G1X97.0Y15.0F3000S226
G1X96.0Y15.0F3000S228
G1X95.0Y15.0F3000S229
G1X94.0Y15.0F3000S220
G1X93.0Y15.0F3000S215
G1X92.0Y15.0F3000S230
G1X91.0Y15.0F3000S166
G1X90.0Y15.0F3000S100
G1X89.0Y15.0F3000S222
G1X88.0Y15.0F3000S208
G1X87.0Y15.0F3000S227
G1X86.0Y15.0F3000S207
G1X85.0Y15.0F3000S226
G1X83.0Y15.0F3000S225
G1X82.0Y15.0F3000S216
G1X81.0Y15.0F3000S221
G1X80.0Y15.0F3000S223
G1X79.0Y15.0F3000S217
G1X78.0Y15.0F3000S185
G1X77.0Y15.0F3000S115
G1X76.0Y15.0F3000S109
G1X75.0Y15.0F3000S145
G1X74.0Y15.0F3000S226
G1X73.0Y15.0F3000S225
G1X72.0Y15.0F3000S223
G1X71.0Y15.0F3000S210
G1X70.0Y15.0F3000S195
G1X69.0Y15.0F3000S185
G1X68.0Y15.0F3000S117
G1X67.0Y15.0F3000S76
G1X66.0Y15.0F3000S59
G1X65.0Y15.0F3000S44
G1X64.0Y15.0F3000S30
G1X63.0Y15.0F3000S151
G1X62.0Y15.0F3000S180
G1X61.0Y15.0F3000S158
G1X60.0Y15.0F3000S123
G1X59.0Y15.0F3000S39
G1X58.0Y15.0F3000S60
G1X57.0Y15.0F3000S81
G1X56.0Y15.0F3000S107
G1X55.0Y15.0F3000S228
G1X54.0Y15.0F3000S230
G1X52.0Y15.0F3000S231
G1X51.0Y15.0F3000S228
G1X50.0Y15.0F3000S230
G1X49.0Y15.0F3000S231
G1X48.0Y15.0F3000S229
G1X47.0Y15.0F3000S227
G1X46.0Y15.0F3000S228
G1X45.0Y15.0F3000S226
G1X44.0Y15.0F3000S227
G1X43.0Y15.0F3000S228
G1X42.0Y15.0F3000S226
G1X41.0Y15.0F3000S228
G1X40.0Y15.0F3000S231
G1X39.0Y15.0F3000S213
G1X38.0Y15.0F3000S126
G1X37.0Y15.0F3000S121
G1X36.0Y15.0F3000S109
G1X35.0Y15.0F3000S104
G1X34.0Y15.0F3000S97
G1X33.0Y15.0F3000S94
G1X32.0Y15.0F3000S96
G1X31.0Y15.0F3000S98
G1X30.0Y15.0F3000S104
G1X29.0Y15.0F3000S117
G1X28.0Y15.0F3000S150
G1X27.0Y15.0F3000S156
G1X26.0Y15.0F3000S170
G1X25.0Y15.0F3000S175
G1X24.0Y15.0F3000S184
G1X23.0Y15.0F3000S198
G1X22.0Y15.0F3000S210
G1X21.0Y15.0F3000S208
G1X20.0Y15.0F3000S213
G1X19.0Y15.0F3000S216
G1X18.0Y15.0F3000S220
G1X17.0Y15.0F3000S222
G1X16.0Y15.0F3000S223
G1X15.0Y15.0F3000S229
G1X14.0Y15.0F3000S226
G1X13.0Y15.0F3000S224
G1X12.0Y15.0F3000S221
G1X11.0Y15.0F3000S210
G1X10.0Y15.0F3000S216
G1X9.0Y15.0F3000S217
G1X8.0Y15.0F3000S221
G1X7.0Y15.0F3000S226
G1X5.0Y15.0F3000S218
G1X4.0Y15.0F3000S177
G1X3.0Y15.0F3000S121
G1X2.0Y15.0F3000S109
G1X1.0Y15.0F3000S95
G1X0.0Y15.0F3000
G1X1.0Y16.0F3000S113
G1X2.0Y16.0F3000S117
G1X3.0Y16.0F3000S124
G1X4.0Y16.0F3000S131
G1X5.0Y16.0F3000S99
G1X6.0Y16.0F3000S169
G1X7.0Y16.0F3000S152
G1X8.0Y16.0F3000S219
G1X9.0Y16.0F3000S229
G1X10.0Y16.0F3000S220
G1X11.0Y16.0F3000S221
G1X14.0Y16.0F3000S222
G1X15.0Y16.0F3000S225
G1X18.0Y16.0F3000S221
G1X20.0Y16.0F3000S219
G1X21.0Y16.0F3000S215
G1X22.0Y16.0F3000S214
G1X23.0Y16.0F3000S210
G1X24.0Y16.0F3000S199
G1X25.0Y16.0F3000S190
G1X26.0Y16.0F3000S173
G1X27.0Y16.0F3000S164
G1X28.0Y16.0F3000S155
G1X29.0Y16.0F3000S153
G1X30.0Y16.0F3000S44
G1X31.0Y16.0F3000S202
G1X32.0Y16.0F3000S211
G1X33.0Y16.0F3000S228
G1X34.0Y16.0F3000S217
G1X35.0Y16.0F3000S222
G1X36.0Y16.0F3000S219
G1X37.0Y16.0F3000S199
G1X38.0Y16.0F3000S104
G1X39.0Y16.0F3000S118
G1X40.0Y16.0F3000S138
G1X41.0Y16.0F3000S231
G1X43.0Y16.0F3000S232
G1X44.0Y16.0F3000S231
G1X46.0Y16.0F3000S230
G1X49.0Y16.0F3000S229
G1X50.0Y16.0F3000S226
G1X51.0Y16.0F3000S229
G1X52.0Y16.0F3000S230
G1X53.0Y16.0F3000S220
G1X55.0Y16.0F3000S231
G1X56.0Y16.0F3000S229
G1X57.0Y16.0F3000S98
G1X58.0Y16.0F3000S72
G1X59.0Y16.0F3000S50
G1X60.0Y16.0F3000S30
G1X61.0Y16.0F3000S70
G1X62.0Y16.0F3000S125
G1X63.0Y16.0F3000S154
G1X64.0Y16.0F3000S121
G1X65.0Y16.0F3000S25
G1X66.0Y16.0F3000S39
G1X67.0Y16.0F3000S55
G1X68.0Y16.0F3000S72
G1X69.0Y16.0F3000S115
G1X70.0Y16.0F3000S181
G1X71.0Y16.0F3000S184
G1X72.0Y16.0F3000S166
G1X73.0Y16.0F3000S214
G1X74.0Y16.0F3000S208
G1X75.0Y16.0F3000S210
G1X76.0Y16.0F3000S194
G1X77.0Y16.0F3000S170
G1X78.0Y16.0F3000S163
G1X79.0Y16.0F3000S171
G1X80.0Y16.0F3000S175
G1X81.0Y16.0F3000S199
G1X82.0Y16.0F3000S154
G1X83.0Y16.0F3000S224
G1X84.0Y16.0F3000S223
G1X85.0Y16.0F3000S219
G1X86.0Y16.0F3000S221
G1X87.0Y16.0F3000S219
G1X88.0Y16.0F3000S204
G1X89.0Y16.0F3000S193
G1X90.0Y16.0F3000S180
G1X91.0Y16.0F3000S161
G1X92.0Y16.0F3000S183
G1X93.0Y16.0F3000S207
G1X94.0Y16.0F3000S211
G1X95.0Y16.0F3000S220
G1X97.0Y16.0F3000S225
G1X98.0Y16.0F3000S226
G1X99.0Y16.0F3000S181
G1X100.0Y16.0F3000S159
G1X101.0Y16.0F3000S139
G1X102.0Y16.0F3000S157
G1X103.0Y16.0F3000S143
G1X104.0Y16.0F3000S147
G1X105.0Y16.0F3000S145
G1X106.0Y16.0F3000S149
G1X107.0Y16.0F3000S224
G1X108.0Y16.0F3000S225
G1X109.0Y16.0F3000S226
G1X110.0Y16.0F3000S225
G1X111.0Y16.0F3000S179
G1X112.0Y16.0F3000S127
G1X113.0Y16.0F3000S210
G1X114.0Y16.0F3000S227
G1X116.0Y16.0F3000S147
G1X117.0Y16.0F3000S103
G1X118.0Y16.0F3000S60
G1X119.0Y16.0F3000S115
G1X120.0Y16.0F3000S225
G1X121.0Y16.0F3000S223
G1X122.0Y16.0F3000S210
G1X123.0Y16.0F3000S206
G1X124.0Y16.0F3000S94
G1X125.0Y16.0F3000S93
G1X126.0Y16.0F3000S79
G1X127.0Y16.0F3000S96
G1X128.0Y16.0F3000S124
G1X130.0Y16.0F3000S137
G1X131.0Y16.0F3000S98
G1X132.0Y16.0F3000S114
G1X133.0Y16.0F3000S220
G1X134.0Y16.0F3000S221
G1X135.0Y16.0F3000S222
G1X136.0Y16.0F3000S214
G1X137.0Y16.0F3000S210
G1X138.0Y16.0F3000S180
G1X139.0Y16.0F3000S221
G1X140.0Y16.0F3000S169
G1X141.0Y16.0F3000S115
G1X142.0Y16.0F3000S112
G1X143.0Y16.0F3000S104
G1X144.0Y16.0F3000S186
G1X145.0Y16.0F3000S184
G0X145.0Y17.0 
G1X144.0Y17.0F3000S140
G1X143.0Y17.0F3000S176
G1X142.0Y17.0F3000S117
G1X141.0Y17.0F3000S106
G1X140.0Y17.0F3000S123
G1X139.0Y17.0F3000S172
G1X138.0Y17.0F3000S222
G1X137.0Y17.0F3000S176
G1X136.0Y17.0F3000S201
G1X135.0Y17.0F3000S217
G1X134.0Y17.0F3000S218
G1X133.0Y17.0F3000S222
G1X132.0Y17.0F3000S221
G1X131.0Y17.0F3000S106
G1X130.0Y17.0F3000S77
G1X129.0Y17.0F3000S69
G1X128.0Y17.0F3000S62
G1X127.0Y17.0F3000S56
G1X126.0Y17.0F3000S49
G1X125.0Y17.0F3000S102
G1X124.0Y17.0F3000S144
G1X123.0Y17.0F3000S151
G1X122.0Y17.0F3000S218
G1X121.0Y17.0F3000S210
G1X120.0Y17.0F3000S214
G1X119.0Y17.0F3000S225
G1X118.0Y17.0F3000S223
G1X117.0Y17.0F3000S221
G1X116.0Y17.0F3000S223
G1X115.0Y17.0F3000S225
G1X114.0Y17.0F3000S227
G1X112.0Y17.0F3000S228
G1X111.0Y17.0F3000S215
G1X110.0Y17.0F3000S221
G1X109.0Y17.0F3000S224
G1X108.0Y17.0F3000S222
G1X107.0Y17.0F3000S150
G1X106.0Y17.0F3000S215
G1X105.0Y17.0F3000S182
G1X104.0Y17.0F3000S178
G1X103.0Y17.0F3000S177
G1X102.0Y17.0F3000S178
G1X101.0Y17.0F3000S206
G1X100.0Y17.0F3000S218
G1X99.0Y17.0F3000S217
G1X98.0Y17.0F3000S216
G1X97.0Y17.0F3000S217
G1X96.0Y17.0F3000S218
G1X95.0Y17.0F3000S217
G1X93.0Y17.0F3000S216
G1X92.0Y17.0F3000S209
G1X91.0Y17.0F3000S204
G1X90.0Y17.0F3000S189
G1X89.0Y17.0F3000S126
G1X87.0Y17.0F3000S213
G1X86.0Y17.0F3000S221
G1X85.0Y17.0F3000S218
G1X84.0Y17.0F3000S213
G1X83.0Y17.0F3000S207
G1X82.0Y17.0F3000S163
G1X81.0Y17.0F3000S54
G1X80.0Y17.0F3000S224
G1X78.0Y17.0F3000S236
G1X77.0Y17.0F3000S221
G1X76.0Y17.0F3000S238
G1X75.0Y17.0F3000S236
G1X74.0Y17.0F3000S172
G1X73.0Y17.0F3000S181
G1X72.0Y17.0F3000S213
G1X71.0Y17.0F3000S234
G1X70.0Y17.0F3000S223
G1X69.0Y17.0F3000S216
G1X68.0Y17.0F3000S112
G1X67.0Y17.0F3000S71
G1X66.0Y17.0F3000S52
G1X65.0Y17.0F3000S36
G1X64.0Y17.0F3000S21
G1X63.0Y17.0F3000S12
G1X62.0Y17.0F3000S6
G1X61.0Y17.0F3000S5
G1X60.0Y17.0F3000S10
G1X59.0Y17.0F3000S29
G1X58.0Y17.0F3000S74
G1X57.0Y17.0F3000S111
G1X56.0Y17.0F3000S138
G1X55.0Y17.0F3000S186
G1X54.0Y17.0F3000S188
G1X53.0Y17.0F3000S187
G1X52.0Y17.0F3000S189
G1X51.0Y17.0F3000S184
G1X50.0Y17.0F3000S203
G1X49.0Y17.0F3000S192
G1X48.0Y17.0F3000S197
G1X47.0Y17.0F3000S202
G1X46.0Y17.0F3000S178
G1X45.0Y17.0F3000S174
G1X44.0Y17.0F3000S172
G1X43.0Y17.0F3000S170
G1X42.0Y17.0F3000S169
G1X41.0Y17.0F3000S166
G1X40.0Y17.0F3000S189
G1X38.0Y17.0F3000S117
G1X37.0Y17.0F3000S50
G1X36.0Y17.0F3000S59
G1X35.0Y17.0F3000S54
G1X34.0Y17.0F3000S56
G1X33.0Y17.0F3000S59
G1X32.0Y17.0F3000S67
G1X31.0Y17.0F3000S74
G1X30.0Y17.0F3000S95
G1X29.0Y17.0F3000S143
G1X28.0Y17.0F3000S156
G1X27.0Y17.0F3000S161
G1X26.0Y17.0F3000S166
G1X25.0Y17.0F3000S178
G1X24.0Y17.0F3000S187
G1X23.0Y17.0F3000S205
G1X22.0Y17.0F3000S202
G1X21.0Y17.0F3000S218
G1X20.0Y17.0F3000S220
G1X19.0Y17.0F3000S219
G1X18.0Y17.0F3000S218
G1X17.0Y17.0F3000S217
G1X16.0Y17.0F3000S224
G1X14.0Y17.0F3000S220
G1X13.0Y17.0F3000S223
G1X12.0Y17.0F3000S222
G1X11.0Y17.0F3000S221
G1X10.0Y17.0F3000S219
G1X9.0Y17.0F3000S215
G1X8.0Y17.0F3000S216
G1X7.0Y17.0F3000S215
G1X6.0Y17.0F3000S189
G1X5.0Y17.0F3000S152
G1X4.0Y17.0F3000S143
G1X3.0Y17.0F3000S136
G1X2.0Y17.0F3000S129
G1X1.0Y17.0F3000S119
G1X0.0Y17.0F3000
G1X2.0Y18.0F3000S117
G1X3.0Y18.0F3000S125
G1X4.0Y18.0F3000S131
G1X5.0Y18.0F3000S136
G1X6.0Y18.0F3000S151
G1X7.0Y18.0F3000S178
G1X8.0Y18.0F3000S179
G1X9.0Y18.0F3000S209
G1X10.0Y18.0F3000S222
G1X11.0Y18.0F3000S216
G1X12.0Y18.0F3000S220
G1X13.0Y18.0F3000S222
G1X14.0Y18.0F3000S221
G1X15.0Y18.0F3000S220
G1X16.0Y18.0F3000S221
G1X17.0Y18.0F3000S223
G1X18.0Y18.0F3000S216
G1X19.0Y18.0F3000S217
G1X20.0Y18.0F3000S216
G1X21.0Y18.0F3000S215
G1X22.0Y18.0F3000S210
G1X23.0Y18.0F3000S220
G1X24.0Y18.0F3000S192
G1X25.0Y18.0F3000S199
G1X26.0Y18.0F3000S177
G1X27.0Y18.0F3000S167
G1X29.0Y18.0F3000S159
G1X30.0Y18.0F3000S149
G1X31.0Y18.0F3000S139
G1X32.0Y18.0F3000S134
G1X33.0Y18.0F3000S125
G1X34.0Y18.0F3000S116
G1X35.0Y18.0F3000S107
G1X36.0Y18.0F3000S100
G1X37.0Y18.0F3000S93
G1X38.0Y18.0F3000S96
G1X39.0Y18.0F3000S104
G1X40.0Y18.0F3000S113
G1X41.0Y18.0F3000S139
G1X42.0Y18.0F3000S175
G1X43.0Y18.0F3000S177
G1X44.0Y18.0F3000S178
G1X45.0Y18.0F3000S179
G1X46.0Y18.0F3000S183
G1X47.0Y18.0F3000S184
G1X48.0Y18.0F3000S203
G1X49.0Y18.0F3000S191
G1X50.0Y18.0F3000S189
G1X51.0Y18.0F3000S203
G1X52.0Y18.0F3000S172
G1X53.0Y18.0F3000S162
G1X54.0Y18.0F3000S193
G1X55.0Y18.0F3000S195
G1X56.0Y18.0F3000S198
G1X57.0Y18.0F3000S196
G1X58.0Y18.0F3000S207
G1X59.0Y18.0F3000S195
G1X60.0Y18.0F3000S183
G1X61.0Y18.0F3000S196
G1X62.0Y18.0F3000S195
G1X63.0Y18.0F3000S194
G1X64.0Y18.0F3000S187
G1X65.0Y18.0F3000S182
G1X66.0Y18.0F3000S162
G1X67.0Y18.0F3000S148
G1X68.0Y18.0F3000S137
G1X69.0Y18.0F3000S174
G1X70.0Y18.0F3000S228
G1X71.0Y18.0F3000S148
G1X72.0Y18.0F3000S233
G1X73.0Y18.0F3000S237
G1X74.0Y18.0F3000S232
G1X75.0Y18.0F3000S208
G1X76.0Y18.0F3000S210
G1X77.0Y18.0F3000S234
G1X78.0Y18.0F3000S134
G1X79.0Y18.0F3000S125
G1X80.0Y18.0F3000S122
G1X81.0Y18.0F3000S216
G1X82.0Y18.0F3000S170
G1X83.0Y18.0F3000S185
G1X84.0Y18.0F3000S167
G1X85.0Y18.0F3000S197
G1X86.0Y18.0F3000S168
G1X87.0Y18.0F3000S207
G1X88.0Y18.0F3000S199
G1X89.0Y18.0F3000S169
G1X90.0Y18.0F3000S127
G1X91.0Y18.0F3000S211
G1X92.0Y18.0F3000S203
G1X93.0Y18.0F3000S208
G1X94.0Y18.0F3000S211
G1X95.0Y18.0F3000S213
G1X96.0Y18.0F3000S215
G1X97.0Y18.0F3000S214
G1X99.0Y18.0F3000S217
G1X102.0Y18.0F3000S216
G1X104.0Y18.0F3000S217
G1X105.0Y18.0F3000S215
G1X106.0Y18.0F3000S193
G1X107.0Y18.0F3000S189
G1X108.0Y18.0F3000S133
G1X109.0Y18.0F3000S184
G1X110.0Y18.0F3000S216
G1X111.0Y18.0F3000S219
G1X112.0Y18.0F3000S220
G1X114.0Y18.0F3000S223
G1X116.0Y18.0F3000S225
G1X117.0Y18.0F3000S223
G1X118.0Y18.0F3000S221
G1X119.0Y18.0F3000S218
G1X120.0Y18.0F3000S221
G1X121.0Y18.0F3000S216
G1X123.0Y18.0F3000S225
G1X124.0Y18.0F3000S188
G1X125.0Y18.0F3000S217
G1X126.0Y18.0F3000S218
G1X127.0Y18.0F3000S219
G1X128.0Y18.0F3000S218
G1X129.0Y18.0F3000S217
G1X130.0Y18.0F3000S219
G1X131.0Y18.0F3000S222
G1X132.0Y18.0F3000S223
G1X133.0Y18.0F3000S222
G1X134.0Y18.0F3000S221
G1X135.0Y18.0F3000S217
G1X136.0Y18.0F3000S216
G1X137.0Y18.0F3000S212
G1X138.0Y18.0F3000S217
G1X139.0Y18.0F3000S222
G1X140.0Y18.0F3000S212
G1X141.0Y18.0F3000S196
G1X142.0Y18.0F3000S118
G1X143.0Y18.0F3000S134
G1X144.0Y18.0F3000S139
G1X145.0Y18.0F3000S185
G0X145.0Y19.0 
G1X144.0Y19.0F3000S195
G1X143.0Y19.0F3000S201
G1X142.0Y19.0F3000S172
G1X141.0Y19.0F3000S100
G1X140.0Y19.0F3000S212
G1X139.0Y19.0F3000S213
G1X138.0Y19.0F3000S217
G1X137.0Y19.0F3000S216
G1X136.0Y19.0F3000S212
G1X135.0Y19.0F3000S213
G1X134.0Y19.0F3000S216
G1X133.0Y19.0F3000S220
G1X132.0Y19.0F3000S221
G1X131.0Y19.0F3000S219
G1X129.0Y19.0F3000S214
G1X127.0Y19.0F3000S211
G1X126.0Y19.0F3000S209
G1X125.0Y19.0F3000S208
G1X124.0Y19.0F3000S211
G1X123.0Y19.0F3000S200
G1X122.0Y19.0F3000S231
G1X121.0Y19.0F3000S224
G1X120.0Y19.0F3000S148
G1X119.0Y19.0F3000S122
G1X118.0Y19.0F3000S157
G1X117.0Y19.0F3000S146
G1X116.0Y19.0F3000S100
G1X115.0Y19.0F3000S136
G1X114.0Y19.0F3000S225
G1X113.0Y19.0F3000S227
G1X112.0Y19.0F3000S224
G1X111.0Y19.0F3000S135
G1X110.0Y19.0F3000S68
G1X109.0Y19.0F3000S123
G1X108.0Y19.0F3000S62
G1X107.0Y19.0F3000S9
G1X106.0Y19.0F3000S152
G1X105.0Y19.0F3000S213
G1X104.0Y19.0F3000S208
G1X103.0Y19.0F3000S219
G1X102.0Y19.0F3000S216
G1X101.0Y19.0F3000S213
G1X99.0Y19.0F3000S215
G1X98.0Y19.0F3000S214
G1X97.0Y19.0F3000S213
G1X94.0Y19.0F3000S209
G1X92.0Y19.0F3000S208
G1X91.0Y19.0F3000S206
G1X90.0Y19.0F3000S209
G1X89.0Y19.0F3000S193
G1X88.0Y19.0F3000S199
G1X87.0Y19.0F3000S198
G1X86.0Y19.0F3000S213
G1X85.0Y19.0F3000S184
G1X84.0Y19.0F3000S188
G1X83.0Y19.0F3000S170
G1X82.0Y19.0F3000S168
G1X81.0Y19.0F3000S161
G1X80.0Y19.0F3000S206
G1X79.0Y19.0F3000S124
G1X78.0Y19.0F3000S131
G1X77.0Y19.0F3000S130
G1X76.0Y19.0F3000S147
G1X75.0Y19.0F3000S192
G1X74.0Y19.0F3000S196
G1X73.0Y19.0F3000S195
G1X72.0Y19.0F3000S197
G1X71.0Y19.0F3000S190
G1X70.0Y19.0F3000S203
G1X69.0Y19.0F3000S236
G1X68.0Y19.0F3000S233
G1X67.0Y19.0F3000S189
G1X66.0Y19.0F3000S192
G1X64.0Y19.0F3000S194
G1X63.0Y19.0F3000S205
G1X62.0Y19.0F3000S197
G1X61.0Y19.0F3000S199
G1X60.0Y19.0F3000S200
G1X59.0Y19.0F3000S189
G1X58.0Y19.0F3000S192
G1X57.0Y19.0F3000S209
G1X56.0Y19.0F3000S196
G1X55.0Y19.0F3000S197
G1X53.0Y19.0F3000S195
G1X52.0Y19.0F3000S193
G1X51.0Y19.0F3000S186
G1X50.0Y19.0F3000S200
G1X49.0Y19.0F3000S185
G1X48.0Y19.0F3000S193
G1X47.0Y19.0F3000S206
G1X46.0Y19.0F3000S192
G1X45.0Y19.0F3000S191
G1X44.0Y19.0F3000S189
G1X43.0Y19.0F3000S187
G1X42.0Y19.0F3000S185
G1X41.0Y19.0F3000S183
G1X40.0Y19.0F3000S110
G1X39.0Y19.0F3000S98
G1X38.0Y19.0F3000S78
G1X37.0Y19.0F3000S60
G1X36.0Y19.0F3000S58
G1X35.0Y19.0F3000S69
G1X34.0Y19.0F3000S79
G1X33.0Y19.0F3000S94
G1X32.0Y19.0F3000S117
G1X31.0Y19.0F3000S139
G1X30.0Y19.0F3000S143
G1X29.0Y19.0F3000S148
G1X28.0Y19.0F3000S152
G1X27.0Y19.0F3000S154
G1X26.0Y19.0F3000S164
G1X25.0Y19.0F3000S178
G1X24.0Y19.0F3000S184
G1X23.0Y19.0F3000S213
G1X22.0Y19.0F3000S197
G1X21.0Y19.0F3000S208
G1X20.0Y19.0F3000S211
G1X19.0Y19.0F3000S212
G1X18.0Y19.0F3000S215
G1X17.0Y19.0F3000S213
G1X16.0Y19.0F3000S232
G1X15.0Y19.0F3000S239
G1X14.0Y19.0F3000S238
G1X13.0Y19.0F3000S228
G1X12.0Y19.0F3000S217
G1X11.0Y19.0F3000S204
G1X10.0Y19.0F3000S202
G1X9.0Y19.0F3000S195
G1X8.0Y19.0F3000S200
G1X7.0Y19.0F3000S196
G1X6.0Y19.0F3000S171
G1X5.0Y19.0F3000S151
G1X4.0Y19.0F3000S135
G1X3.0Y19.0F3000S126
G1X1.0Y19.0F3000S116
G1X0.0Y19.0F3000
G1X1.0Y20.0F3000S65
G1X2.0Y20.0F3000S105
G1X3.0Y20.0F3000S92
G1X4.0Y20.0F3000S115
G1X5.0Y20.0F3000S131
G1X6.0Y20.0F3000S149
G1X7.0Y20.0F3000S166
G1X8.0Y20.0F3000S214
G1X9.0Y20.0F3000S239
G1X10.0Y20.0F3000S240
G1X11.0Y20.0F3000S241
G1X12.0Y20.0F3000S242
G1X13.0Y20.0F3000S241
G1X17.0Y20.0F3000S242
G1X18.0Y20.0F3000S195
G1X19.0Y20.0F3000S206
G1X20.0Y20.0F3000S201
G1X22.0Y20.0F3000S200
G1X23.0Y20.0F3000S204
G1X24.0Y20.0F3000S187
G1X25.0Y20.0F3000S191
G1X26.0Y20.0F3000S176
G1X27.0Y20.0F3000S148
G1X28.0Y20.0F3000S115
G1X29.0Y20.0F3000S96
G1X30.0Y20.0F3000S143
G1X31.0Y20.0F3000S170
G1X32.0Y20.0F3000S162
G1X33.0Y20.0F3000S196
G1X34.0Y20.0F3000S171
G1X35.0Y20.0F3000S130
G1X36.0Y20.0F3000S120
G1X37.0Y20.0F3000S102
G1X38.0Y20.0F3000S56
G1X39.0Y20.0F3000S106
G1X40.0Y20.0F3000S119
G1X41.0Y20.0F3000S140
G1X42.0Y20.0F3000S150
G1X43.0Y20.0F3000S159
G1X44.0Y20.0F3000S168
G1X45.0Y20.0F3000S191
G1X46.0Y20.0F3000S193
G1X47.0Y20.0F3000S194
G1X48.0Y20.0F3000S212
G1X49.0Y20.0F3000S196
G1X50.0Y20.0F3000S184
G1X51.0Y20.0F3000S201
G1X52.0Y20.0F3000S192
G1X53.0Y20.0F3000S195
G1X55.0Y20.0F3000S196
G1X56.0Y20.0F3000S198
G1X57.0Y20.0F3000S200
G1X58.0Y20.0F3000S211
G1X59.0Y20.0F3000S194
G1X60.0Y20.0F3000S192
G1X61.0Y20.0F3000S198
G1X62.0Y20.0F3000S200
G1X63.0Y20.0F3000S198
G1X64.0Y20.0F3000S207
G1X65.0Y20.0F3000S196
G1X66.0Y20.0F3000S194
G1X67.0Y20.0F3000S190
G1X68.0Y20.0F3000S185
G1X69.0Y20.0F3000S237
G1X70.0Y20.0F3000S161
G1X71.0Y20.0F3000S99
G1X72.0Y20.0F3000S159
G1X73.0Y20.0F3000S77
G1X74.0Y20.0F3000S154
G1X75.0Y20.0F3000S168
G1X76.0Y20.0F3000S159
G1X77.0Y20.0F3000S188
G1X78.0Y20.0F3000S76
G1X79.0Y20.0F3000S47
G1X80.0Y20.0F3000S74
G1X81.0Y20.0F3000S186
G1X82.0Y20.0F3000S191
G1X83.0Y20.0F3000S163
G1X84.0Y20.0F3000S180
G1X85.0Y20.0F3000S137
G1X86.0Y20.0F3000S154
G1X87.0Y20.0F3000S206
G1X88.0Y20.0F3000S192
G1X89.0Y20.0F3000S153
G1X90.0Y20.0F3000S191
G1X91.0Y20.0F3000S206
G1X92.0Y20.0F3000S202
G1X93.0Y20.0F3000S208
G1X94.0Y20.0F3000S157
G1X95.0Y20.0F3000S189
G1X96.0Y20.0F3000S204
G1X97.0Y20.0F3000S203
G1X98.0Y20.0F3000S201
G1X100.0Y20.0F3000S205
G1X101.0Y20.0F3000S204
G1X102.0Y20.0F3000S205
G1X103.0Y20.0F3000S210
G1X104.0Y20.0F3000S215
G1X105.0Y20.0F3000S209
G1X106.0Y20.0F3000S198
G1X107.0Y20.0F3000S55
G1X108.0Y20.0F3000S10
G1X109.0Y20.0F3000S85
G1X110.0Y20.0F3000S92
G1X111.0Y20.0F3000S75
G1X112.0Y20.0F3000S99
G1X113.0Y20.0F3000S108
G1X115.0Y20.0F3000S225
G1X116.0Y20.0F3000S218
G1X117.0Y20.0F3000S225
G1X118.0Y20.0F3000S156
G1X119.0Y20.0F3000S97
G1X120.0Y20.0F3000S118
G1X121.0Y20.0F3000S164
G1X122.0Y20.0F3000S218
G1X123.0Y20.0F3000S215
G1X124.0Y20.0F3000S165
G1X125.0Y20.0F3000S187
G1X126.0Y20.0F3000S218
G1X127.0Y20.0F3000S222
G1X128.0Y20.0F3000S217
G1X129.0Y20.0F3000S222
G1X130.0Y20.0F3000S207
G1X131.0Y20.0F3000S223
G1X132.0Y20.0F3000S224
G1X133.0Y20.0F3000S221
G1X135.0Y20.0F3000S220
G1X136.0Y20.0F3000S217
G1X137.0Y20.0F3000S215
G1X138.0Y20.0F3000S218
G1X139.0Y20.0F3000S216
G1X140.0Y20.0F3000S213
G1X141.0Y20.0F3000S187
G1X142.0Y20.0F3000S174
G1X143.0Y20.0F3000S183
G1X144.0Y20.0F3000S197
G1X145.0Y20.0F3000S183
G0X145.0Y21.0 
G1X144.0Y21.0F3000S129
G1X143.0Y21.0F3000S215
G1X142.0Y21.0F3000S208
G1X141.0Y21.0F3000S207
G1X140.0Y21.0F3000S217
G1X139.0Y21.0F3000S215
G1X138.0Y21.0F3000S156
G1X137.0Y21.0F3000S195
G1X136.0Y21.0F3000S217
G1X135.0Y21.0F3000S163
G1X134.0Y21.0F3000S149
G1X133.0Y21.0F3000S214
G1X132.0Y21.0F3000S220
G1X131.0Y21.0F3000S219
G1X130.0Y21.0F3000S178
G1X129.0Y21.0F3000S163
G1X128.0Y21.0F3000S100
G1X127.0Y21.0F3000S84
G1X126.0Y21.0F3000S88
G1X125.0Y21.0F3000S71
G1X124.0Y21.0F3000S116
G1X123.0Y21.0F3000S206
G1X122.0Y21.0F3000S225
G1X121.0Y21.0F3000S231
G1X120.0Y21.0F3000S230
G1X119.0Y21.0F3000S225
G1X118.0Y21.0F3000S207
G1X117.0Y21.0F3000S206
G1X116.0Y21.0F3000S205
G1X115.0Y21.0F3000S219
G1X114.0Y21.0F3000S221
G1X113.0Y21.0F3000S212
G1X112.0Y21.0F3000S126
G1X111.0Y21.0F3000S84
G1X110.0Y21.0F3000S76
G1X109.0Y21.0F3000S98
G1X108.0Y21.0F3000S111
G1X107.0Y21.0F3000S71
G1X106.0Y21.0F3000S76
G1X105.0Y21.0F3000S85
G1X104.0Y21.0F3000S117
G1X103.0Y21.0F3000S156
G1X102.0Y21.0F3000S109
G1X101.0Y21.0F3000S105
G1X100.0Y21.0F3000S115
G1X99.0Y21.0F3000S51
G1X98.0Y21.0F3000S10
G1X97.0Y21.0F3000S9
G1X96.0Y21.0F3000S30
G1X95.0Y21.0F3000S38
G1X94.0Y21.0F3000S148
G1X93.0Y21.0F3000S189
G1X92.0Y21.0F3000S184
G1X91.0Y21.0F3000S125
G1X90.0Y21.0F3000S116
G1X89.0Y21.0F3000S160
G1X88.0Y21.0F3000S122
G1X87.0Y21.0F3000S153
G1X86.0Y21.0F3000S186
G1X85.0Y21.0F3000S190
G1X84.0Y21.0F3000S171
G1X83.0Y21.0F3000S148
G1X82.0Y21.0F3000S127
G1X81.0Y21.0F3000S178
G1X80.0Y21.0F3000S111
G1X79.0Y21.0F3000S24
G1X78.0Y21.0F3000S44
G1X77.0Y21.0F3000S50
G1X76.0Y21.0F3000S151
G1X75.0Y21.0F3000S191
G1X74.0Y21.0F3000S190
G1X73.0Y21.0F3000S194
G1X72.0Y21.0F3000S86
G1X71.0Y21.0F3000S144
G1X70.0Y21.0F3000S104
G1X69.0Y21.0F3000S54
G1X68.0Y21.0F3000S228
G1X67.0Y21.0F3000S189
G1X66.0Y21.0F3000S184
G1X65.0Y21.0F3000S179
G1X64.0Y21.0F3000S195
G1X63.0Y21.0F3000S205
G1X62.0Y21.0F3000S199
G1X61.0Y21.0F3000S201
G1X60.0Y21.0F3000S200
G1X58.0Y21.0F3000S198
G1X57.0Y21.0F3000S212
G1X56.0Y21.0F3000S202
G1X55.0Y21.0F3000S198
G1X54.0Y21.0F3000S195
G1X53.0Y21.0F3000S196
G1X52.0Y21.0F3000S195
G1X51.0Y21.0F3000S194
G1X50.0Y21.0F3000S200
G1X49.0Y21.0F3000S188
G1X48.0Y21.0F3000S202
G1X47.0Y21.0F3000S215
G1X46.0Y21.0F3000S202
G1X45.0Y21.0F3000S207
G1X44.0Y21.0F3000S208
G1X43.0Y21.0F3000S183
G1X42.0Y21.0F3000S170
G1X41.0Y21.0F3000S136
G1X40.0Y21.0F3000S177
G1X39.0Y21.0F3000S230
G1X38.0Y21.0F3000S238
G1X36.0Y21.0F3000S235
G1X35.0Y21.0F3000S237
G1X34.0Y21.0F3000S230
G1X33.0Y21.0F3000S212
G1X32.0Y21.0F3000S219
G1X31.0Y21.0F3000S210
G1X30.0Y21.0F3000S202
G1X29.0Y21.0F3000S228
G1X28.0Y21.0F3000S222
G1X27.0Y21.0F3000S74
G1X26.0Y21.0F3000S182
G1X25.0Y21.0F3000S185
G1X24.0Y21.0F3000S161
G1X23.0Y21.0F3000S146
G1X22.0Y21.0F3000S195
G1X21.0Y21.0F3000S191
G1X20.0Y21.0F3000S204
G1X19.0Y21.0F3000S209
G1X18.0Y21.0F3000S233
G1X17.0Y21.0F3000S228
G1X16.0Y21.0F3000S226
G1X15.0Y21.0F3000S227
G1X14.0Y21.0F3000S230
G1X13.0Y21.0F3000S229
G1X12.0Y21.0F3000S230
G1X11.0Y21.0F3000S215
G1X10.0Y21.0F3000S233
G1X9.0Y21.0F3000S225
G1X8.0Y21.0F3000S163
G1X7.0Y21.0F3000S191
G1X6.0Y21.0F3000S163
G1X5.0Y21.0F3000S144
G1X4.0Y21.0F3000S124
G1X3.0Y21.0F3000S109
G1X2.0Y21.0F3000S82
G1X1.0Y21.0F3000S67
G1X0.0Y21.0F3000
G1X1.0Y22.0F3000S68
G1X2.0Y22.0F3000S74
G1X3.0Y22.0F3000S83
G1X4.0Y22.0F3000S99
G1X5.0Y22.0F3000S113
G1X6.0Y22.0F3000S128
G1X7.0Y22.0F3000S149
G1X8.0Y22.0F3000S180
G1X9.0Y22.0F3000S143
G1X10.0Y22.0F3000S226
G1X11.0Y22.0F3000S223
G1X12.0Y22.0F3000S221
G1X13.0Y22.0F3000S217
G1X14.0Y22.0F3000S212
G1X15.0Y22.0F3000S213
G1X16.0Y22.0F3000S210
G1X17.0Y22.0F3000S219
G1X18.0Y22.0F3000S204
G1X19.0Y22.0F3000S222
G1X20.0Y22.0F3000S223
G1X21.0Y22.0F3000S230
G1X22.0Y22.0F3000S243
G1X23.0Y22.0F3000S244
G1X24.0Y22.0F3000S243
G1X27.0Y22.0F3000S245
G1X28.0Y22.0F3000S241
G1X29.0Y22.0F3000S207
G1X30.0Y22.0F3000S225
G1X31.0Y22.0F3000S237
G1X32.0Y22.0F3000S232
G1X33.0Y22.0F3000S226
G1X34.0Y22.0F3000S227
G1X35.0Y22.0F3000S229
G1X39.0Y22.0F3000S239
G1X40.0Y22.0F3000S240
G1X43.0Y22.0F3000S239
G1X46.0Y22.0F3000S238
G1X47.0Y22.0F3000S202
G1X48.0Y22.0F3000S205
G1X49.0Y22.0F3000S234
G1X50.0Y22.0F3000S224
G1X51.0Y22.0F3000S220
G1X52.0Y22.0F3000S227
G1X53.0Y22.0F3000S225
G1X54.0Y22.0F3000S221
G1X55.0Y22.0F3000S220
G1X56.0Y22.0F3000S218
G1X57.0Y22.0F3000S216
G1X58.0Y22.0F3000S206
G1X59.0Y22.0F3000S205
G1X60.0Y22.0F3000S203
G1X61.0Y22.0F3000S201
G1X62.0Y22.0F3000S202
G1X63.0Y22.0F3000S191
G1X64.0Y22.0F3000S188
G1X65.0Y22.0F3000S172
G1X66.0Y22.0F3000S195
G1X68.0Y22.0F3000S192
G1X69.0Y22.0F3000S220
G1X70.0Y22.0F3000S101
G1X71.0Y22.0F3000S114
G1X72.0Y22.0F3000S144
G1X73.0Y22.0F3000S87
G1X74.0Y22.0F3000S230
G1X75.0Y22.0F3000S224
G1X76.0Y22.0F3000S213
G1X77.0Y22.0F3000S117
G1X78.0Y22.0F3000S107
G1X79.0Y22.0F3000S139
G1X80.0Y22.0F3000S33
G1X81.0Y22.0F3000S111
G1X82.0Y22.0F3000S130
G1X83.0Y22.0F3000S187
G1X84.0Y22.0F3000S191
G1X85.0Y22.0F3000S171
G1X86.0Y22.0F3000S184
G1X87.0Y22.0F3000S178
G1X88.0Y22.0F3000S90
G1X89.0Y22.0F3000S136
G1X90.0Y22.0F3000S117
G1X91.0Y22.0F3000S78
G1X92.0Y22.0F3000S7
G1X93.0Y22.0F3000S44
G1X94.0Y22.0F3000S43
G1X95.0Y22.0F3000S17
G1X96.0Y22.0F3000S36
G1X97.0Y22.0F3000S80
G1X98.0Y22.0F3000S68
G1X99.0Y22.0F3000S55
G1X100.0Y22.0F3000S22
G1X101.0Y22.0F3000S33
G1X102.0Y22.0F3000S6
G1X103.0Y22.0F3000S25
G1X104.0Y22.0F3000S44
G1X105.0Y22.0F3000S48
G1X106.0Y22.0F3000S151
G1X107.0Y22.0F3000S53
G1X108.0Y22.0F3000S24
G1X109.0Y22.0F3000S30
G1X110.0Y22.0F3000S119
G1X111.0Y22.0F3000S90
G1X112.0Y22.0F3000S84
G1X113.0Y22.0F3000S3
G1X114.0Y22.0F3000S38
G1X115.0Y22.0F3000S187
G1X116.0Y22.0F3000S58
G1X117.0Y22.0F3000S88
G1X118.0Y22.0F3000S239
G1X119.0Y22.0F3000S208
G1X120.0Y22.0F3000S222
G1X121.0Y22.0F3000S231
G1X122.0Y22.0F3000S232
G1X123.0Y22.0F3000S228
G1X124.0Y22.0F3000S214
G1X125.0Y22.0F3000S156
G1X126.0Y22.0F3000S136
G1X127.0Y22.0F3000S143
G1X128.0Y22.0F3000S129
G1X129.0Y22.0F3000S211
G1X132.0Y22.0F3000S224
G1X133.0Y22.0F3000S223
G1X134.0Y22.0F3000S206
G1X135.0Y22.0F3000S185
G1X137.0Y22.0F3000S203
G1X138.0Y22.0F3000S204
G1X139.0Y22.0F3000S190
G1X140.0Y22.0F3000S208
G1X141.0Y22.0F3000S196
G1X142.0Y22.0F3000S211
G1X143.0Y22.0F3000S194
G1X144.0Y22.0F3000S201
G1X145.0Y22.0F3000S180
G0X145.0Y23.0 
G1X144.0Y23.0F3000S140
G1X143.0Y23.0F3000S129
G1X142.0Y23.0F3000S124
G1X141.0Y23.0F3000S123
G1X140.0Y23.0F3000S120
G1X139.0Y23.0F3000S116
G1X138.0Y23.0F3000S113
G1X137.0Y23.0F3000S108
G1X136.0Y23.0F3000S104
G1X135.0Y23.0F3000S99
G1X134.0Y23.0F3000S93
G1X133.0Y23.0F3000S73
G1X132.0Y23.0F3000S53
G1X131.0Y23.0F3000S32
G1X130.0Y23.0F3000S14
G1X129.0Y23.0F3000S6
G1X128.0Y23.0F3000S5
G1X124.0Y23.0F3000S3
G1X123.0Y23.0F3000S206
G1X122.0Y23.0F3000S230
G1X121.0Y23.0F3000S234
G1X120.0Y23.0F3000S235
G1X119.0Y23.0F3000S230
G1X118.0Y23.0F3000S151
G1X117.0Y23.0F3000S235
G1X116.0Y23.0F3000S129
G1X115.0Y23.0F3000S46
G1X114.0Y23.0F3000S194
G1X113.0Y23.0F3000S61
G1X111.0Y23.0F3000S3
G1X110.0Y23.0F3000S30
G1X109.0Y23.0F3000S65
G1X108.0Y23.0F3000S131
G1X107.0Y23.0F3000S110
G1X106.0Y23.0F3000S65
G1X105.0Y23.0F3000S132
G1X104.0Y23.0F3000S56
G1X103.0Y23.0F3000S94
G1X102.0Y23.0F3000S149
G1X101.0Y23.0F3000S185
G1X100.0Y23.0F3000S186
G1X99.0Y23.0F3000S161
G1X98.0Y23.0F3000S164
G1X97.0Y23.0F3000S138
G1X96.0Y23.0F3000S152
G1X95.0Y23.0F3000S155
G1X94.0Y23.0F3000S148
G1X93.0Y23.0F3000S141
G1X92.0Y23.0F3000S109
G1X91.0Y23.0F3000S92
G1X90.0Y23.0F3000S96
G1X89.0Y23.0F3000S110
G1X88.0Y23.0F3000S128
G1X87.0Y23.0F3000S90
G1X86.0Y23.0F3000S63
G1X85.0Y23.0F3000S49
G1X84.0Y23.0F3000S134
G1X83.0Y23.0F3000S168
G1X82.0Y23.0F3000S172
G1X81.0Y23.0F3000S157
G1X80.0Y23.0F3000S140
G1X79.0Y23.0F3000S188
G1X78.0Y23.0F3000S194
G1X77.0Y23.0F3000S171
G1X76.0Y23.0F3000S81
G1X75.0Y23.0F3000S173
G1X74.0Y23.0F3000S233
G1X73.0Y23.0F3000S236
G1X72.0Y23.0F3000S157
G1X71.0Y23.0F3000S123
G1X70.0Y23.0F3000S29
G1X69.0Y23.0F3000S151
G1X68.0Y23.0F3000S238
G1X67.0Y23.0F3000S241
G1X65.0Y23.0F3000S243
G1X64.0Y23.0F3000S201
G1X63.0Y23.0F3000S161
G1X62.0Y23.0F3000S222
G1X61.0Y23.0F3000S224
G1X60.0Y23.0F3000S242
G1X59.0Y23.0F3000S241
G1X58.0Y23.0F3000S226
G1X57.0Y23.0F3000S243
G1X56.0Y23.0F3000S248
G1X55.0Y23.0F3000S246
G1X54.0Y23.0F3000S247
G1X52.0Y23.0F3000S246
G1X51.0Y23.0F3000S247
G1X50.0Y23.0F3000S243
G1X49.0Y23.0F3000S241
G1X48.0Y23.0F3000S220
G1X47.0Y23.0F3000S204
G1X46.0Y23.0F3000S239
G1X45.0Y23.0F3000S237
G1X44.0Y23.0F3000S233
G1X43.0Y23.0F3000S235
G1X42.0Y23.0F3000S239
G1X41.0Y23.0F3000S214
G1X40.0Y23.0F3000S240
G1X39.0Y23.0F3000S241
G1X38.0Y23.0F3000S230
G1X37.0Y23.0F3000S223
G1X36.0Y23.0F3000S236
G1X35.0Y23.0F3000S237
G1X34.0Y23.0F3000S231
G1X33.0Y23.0F3000S234
G1X32.0Y23.0F3000S241
G1X31.0Y23.0F3000S232
G1X29.0Y23.0F3000S245
G1X28.0Y23.0F3000S246
G1X27.0Y23.0F3000S245
G1X26.0Y23.0F3000S244
G1X25.0Y23.0F3000S241
G1X23.0Y23.0F3000S239
G1X22.0Y23.0F3000S237
G1X21.0Y23.0F3000S235
G1X19.0Y23.0F3000S234
G1X18.0Y23.0F3000S233
G1X17.0Y23.0F3000S230
G1X16.0Y23.0F3000S159
G1X15.0Y23.0F3000S198
G1X14.0Y23.0F3000S242
G1X13.0Y23.0F3000S240
G1X12.0Y23.0F3000S241
G1X11.0Y23.0F3000S239
G1X10.0Y23.0F3000S238
G1X9.0Y23.0F3000S203
G1X8.0Y23.0F3000S183
G1X7.0Y23.0F3000S148
G1X6.0Y23.0F3000S116
G1X5.0Y23.0F3000S104
G1X4.0Y23.0F3000S92
G1X3.0Y23.0F3000S81
G1X2.0Y23.0F3000S69
G1X1.0Y23.0F3000S61
G1X0.0Y23.0F3000
G1X6.0Y24.0F3000S3
G1X7.0Y24.0F3000S7
G1X8.0Y24.0F3000S3
G1X9.0Y24.0F3000S22
G1X10.0Y24.0F3000S189
G1X11.0Y24.0F3000S188
G1X12.0Y24.0F3000S226
G1X13.0Y24.0F3000S236
G1X14.0Y24.0F3000S225
G1X15.0Y24.0F3000S203
G1X16.0Y24.0F3000S183
G1X17.0Y24.0F3000S164
G1X18.0Y24.0F3000S160
G1X19.0Y24.0F3000S203
G1X20.0Y24.0F3000S234
G1X21.0Y24.0F3000S235
G1X22.0Y24.0F3000S242
G1X23.0Y24.0F3000S238
G1X24.0Y24.0F3000S218
G1X25.0Y24.0F3000S233
G1X26.0Y24.0F3000S227
G1X27.0Y24.0F3000S235
G1X28.0Y24.0F3000S240
G1X29.0Y24.0F3000S244
G1X30.0Y24.0F3000S245
G1X31.0Y24.0F3000S246
G1X32.0Y24.0F3000S234
G1X33.0Y24.0F3000S201
G1X35.0Y24.0F3000S240
G1X36.0Y24.0F3000S170
G1X37.0Y24.0F3000S116
G1X38.0Y24.0F3000S181
G1X39.0Y24.0F3000S231
G1X40.0Y24.0F3000S240
G1X42.0Y24.0F3000S242
G1X43.0Y24.0F3000S239
G1X44.0Y24.0F3000S220
G1X45.0Y24.0F3000S85
G1X46.0Y24.0F3000S222
G1X47.0Y24.0F3000S238
G1X48.0Y24.0F3000S241
G1X49.0Y24.0F3000S242
G1X51.0Y24.0F3000S232
G1X52.0Y24.0F3000S230
G1X53.0Y24.0F3000S247
G1X54.0Y24.0F3000S232
G1X55.0Y24.0F3000S248
G1X57.0Y24.0F3000S247
G1X58.0Y24.0F3000S237
G1X59.0Y24.0F3000S246
G1X60.0Y24.0F3000S244
G1X61.0Y24.0F3000S245
G1X62.0Y24.0F3000S238
G1X63.0Y24.0F3000S205
G1X64.0Y24.0F3000S235
G1X65.0Y24.0F3000S229
G1X66.0Y24.0F3000S236
G1X67.0Y24.0F3000S234
G1X68.0Y24.0F3000S232
G1X69.0Y24.0F3000S242
G1X70.0Y24.0F3000S237
G1X71.0Y24.0F3000S187
G1X72.0Y24.0F3000S126
G1X73.0Y24.0F3000S230
G1X74.0Y24.0F3000S213
G1X75.0Y24.0F3000S191
G1X76.0Y24.0F3000S97
G1X77.0Y24.0F3000S60
G1X78.0Y24.0F3000S72
G1X79.0Y24.0F3000S70
G1X80.0Y24.0F3000S97
G1X81.0Y24.0F3000S85
G1X82.0Y24.0F3000S98
G1X83.0Y24.0F3000S102
G1X84.0Y24.0F3000S68
G1X85.0Y24.0F3000S47
G1X86.0Y24.0F3000S32
G1X87.0Y24.0F3000S44
G1X88.0Y24.0F3000S29
G1X89.0Y24.0F3000S81
G1X90.0Y24.0F3000S91
G1X91.0Y24.0F3000S94
G1X92.0Y24.0F3000S99
G1X93.0Y24.0F3000S105
G1X94.0Y24.0F3000S111
G1X95.0Y24.0F3000S108
G1X96.0Y24.0F3000S78
G1X97.0Y24.0F3000S54
G1X98.0Y24.0F3000S76
G1X99.0Y24.0F3000S108
G1X100.0Y24.0F3000S113
G1X101.0Y24.0F3000S148
G1X102.0Y24.0F3000S128
G1X103.0Y24.0F3000S140
G1X104.0Y24.0F3000S105
G1X105.0Y24.0F3000S54
G1X106.0Y24.0F3000S158
G1X107.0Y24.0F3000S34
G1X108.0Y24.0F3000S27
G1X109.0Y24.0F3000S54
G1X110.0Y24.0F3000S34
G1X111.0Y24.0F3000S10
G1X113.0Y24.0F3000S3
G1X114.0Y24.0F3000S46
G1X115.0Y24.0F3000S165
G1X116.0Y24.0F3000S125
G1X117.0Y24.0F3000S188
G1X118.0Y24.0F3000S142
G1X119.0Y24.0F3000S183
G1X120.0Y24.0F3000S232
G1X121.0Y24.0F3000S234
G1X122.0Y24.0F3000S233
G1X123.0Y24.0F3000S228
G1X124.0Y24.0F3000S191
G1X125.0Y24.0F3000S134
G1X127.0Y24.0F3000S154
G1X128.0Y24.0F3000S118
G1X129.0Y24.0F3000S46
G1X130.0Y24.0F3000S15
G1X131.0Y24.0F3000S3
G1X132.0Y24.0F3000S7
G1X133.0Y24.0F3000S20
G1X134.0Y24.0F3000S29
G1X136.0Y24.0F3000S38
G1X137.0Y24.0F3000S34
G1X139.0Y24.0F3000S36
G1X141.0Y24.0F3000S35
G1X142.0Y24.0F3000S34
G1X143.0Y24.0F3000S30
G1X144.0Y24.0F3000S27
G1X145.0Y24.0F3000S30
G0X145.0Y25.0 
G1X144.0Y25.0F3000S35
G1X143.0Y25.0F3000S33
G1X142.0Y25.0F3000S36
G1X141.0Y25.0F3000S37
G1X140.0Y25.0F3000S38
G1X139.0Y25.0F3000S39
G1X137.0Y25.0F3000S40
G1X136.0Y25.0F3000S39
G1X135.0Y25.0F3000S54
G1X134.0Y25.0F3000S39
G1X133.0Y25.0F3000S30
G1X132.0Y25.0F3000S18
G1X131.0Y25.0F3000S13
G1X130.0Y25.0F3000S37
G1X129.0Y25.0F3000S143
G1X128.0Y25.0F3000S152
G1X127.0Y25.0F3000S165
G1X126.0Y25.0F3000S164
G1X125.0Y25.0F3000S162
G1X124.0Y25.0F3000S152
G1X123.0Y25.0F3000S164
G1X122.0Y25.0F3000S225
G1X120.0Y25.0F3000S232
G1X119.0Y25.0F3000S227
G1X118.0Y25.0F3000S123
G1X117.0Y25.0F3000S3
G1X116.0Y25.0F3000S109
G1X115.0Y25.0F3000S184
G1X114.0Y25.0F3000S155
G1X113.0Y25.0F3000S29
G1X112.0Y25.0F3000S54
G1X111.0Y25.0F3000S65
G1X110.0Y25.0F3000S73
G1X109.0Y25.0F3000S107
G1X108.0Y25.0F3000S116
G1X107.0Y25.0F3000S151
G1X106.0Y25.0F3000S126
G1X105.0Y25.0F3000S162
G1X104.0Y25.0F3000S49
G1X103.0Y25.0F3000S135
G1X102.0Y25.0F3000S136
G1X101.0Y25.0F3000S138
G1X100.0Y25.0F3000S149
G1X99.0Y25.0F3000S130
G1X98.0Y25.0F3000S124
G1X97.0Y25.0F3000S108
G1X96.0Y25.0F3000S103
G1X95.0Y25.0F3000S91
G1X94.0Y25.0F3000S85
G1X93.0Y25.0F3000S82
G1X92.0Y25.0F3000S79
G1X91.0Y25.0F3000S77
G1X90.0Y25.0F3000S73
G1X89.0Y25.0F3000S74
G1X88.0Y25.0F3000S61
G1X87.0Y25.0F3000S76
G1X86.0Y25.0F3000S77
G1X85.0Y25.0F3000S75
G1X84.0Y25.0F3000S63
G1X83.0Y25.0F3000S71
G1X82.0Y25.0F3000S46
G1X81.0Y25.0F3000S42
G1X80.0Y25.0F3000S67
G1X79.0Y25.0F3000S80
G1X78.0Y25.0F3000S83
G1X77.0Y25.0F3000S80
G1X76.0Y25.0F3000S115
G1X75.0Y25.0F3000S130
G1X74.0Y25.0F3000S137
G1X73.0Y25.0F3000S118
G1X72.0Y25.0F3000S86
G1X71.0Y25.0F3000S128
G1X70.0Y25.0F3000S215
G1X69.0Y25.0F3000S237
G1X68.0Y25.0F3000S241
G1X67.0Y25.0F3000S232
G1X66.0Y25.0F3000S233
G1X65.0Y25.0F3000S236
G1X64.0Y25.0F3000S230
G1X63.0Y25.0F3000S214
G1X62.0Y25.0F3000S212
G1X61.0Y25.0F3000S236
G1X60.0Y25.0F3000S229
G1X59.0Y25.0F3000S231
G1X58.0Y25.0F3000S203
G1X57.0Y25.0F3000S239
G1X56.0Y25.0F3000S243
G1X55.0Y25.0F3000S247
G1X54.0Y25.0F3000S248
G1X52.0Y25.0F3000S247
G1X51.0Y25.0F3000S245
G1X50.0Y25.0F3000S244
G1X49.0Y25.0F3000S236
G1X48.0Y25.0F3000S243
G1X47.0Y25.0F3000S242
G1X46.0Y25.0F3000S175
G1X45.0Y25.0F3000S192
G1X44.0Y25.0F3000S191
G1X43.0Y25.0F3000S233
G1X42.0Y25.0F3000S240
G1X40.0Y25.0F3000S243
G1X39.0Y25.0F3000S225
G1X38.0Y25.0F3000S238
G1X37.0Y25.0F3000S235
G1X36.0Y25.0F3000S213
G1X35.0Y25.0F3000S237
G1X34.0Y25.0F3000S230
G1X32.0Y25.0F3000S245
G1X30.0Y25.0F3000S243
G1X29.0Y25.0F3000S240
G1X28.0Y25.0F3000S227
G1X27.0Y25.0F3000S240
G1X25.0Y25.0F3000S239
G1X24.0Y25.0F3000S245
G1X23.0Y25.0F3000S242
G1X22.0Y25.0F3000S238
G1X21.0Y25.0F3000S233
G1X20.0Y25.0F3000S225
G1X19.0Y25.0F3000S239
G1X18.0Y25.0F3000S240
G1X17.0Y25.0F3000S214
G1X16.0Y25.0F3000S203
G1X15.0Y25.0F3000S235
G1X14.0Y25.0F3000S231
G1X13.0Y25.0F3000S242
G1X12.0Y25.0F3000S239
G1X11.0Y25.0F3000S184
G1X10.0Y25.0F3000S203
G1X8.0Y25.0F3000S3
G1X7.0Y25.0F3000S32
G1X6.0Y25.0F3000S6
G1X0.0Y25.0F3000
G1X7.0Y26.0F3000S3
G1X8.0Y26.0F3000S14
G1X9.0Y26.0F3000S27
G1X10.0Y26.0F3000S4
G1X11.0Y26.0F3000S6
G1X12.0Y26.0F3000S226
G1X13.0Y26.0F3000S237
G1X14.0Y26.0F3000S240
G1X15.0Y26.0F3000S243
G1X16.0Y26.0F3000S241
G1X17.0Y26.0F3000S227
G1X18.0Y26.0F3000S233
G1X19.0Y26.0F3000S200
G1X20.0Y26.0F3000S222
G1X21.0Y26.0F3000S221
G1X22.0Y26.0F3000S218
G1X23.0Y26.0F3000S222
G1X24.0Y26.0F3000S232
G1X25.0Y26.0F3000S217
G1X26.0Y26.0F3000S235
G1X27.0Y26.0F3000S245
G1X28.0Y26.0F3000S233
G1X29.0Y26.0F3000S245
G1X30.0Y26.0F3000S239
G1X31.0Y26.0F3000S118
G1X32.0Y26.0F3000S244
G1X33.0Y26.0F3000S224
G1X34.0Y26.0F3000S243
G1X35.0Y26.0F3000S228
G1X36.0Y26.0F3000S192
G1X37.0Y26.0F3000S241
G1X39.0Y26.0F3000S243
G1X40.0Y26.0F3000S232
G1X43.0Y26.0F3000S244
G1X44.0Y26.0F3000S243
G1X45.0Y26.0F3000S239
G1X46.0Y26.0F3000S240
G1X47.0Y26.0F3000S204
G1X48.0Y26.0F3000S240
G1X49.0Y26.0F3000S244
G1X50.0Y26.0F3000S239
G1X51.0Y26.0F3000S242
G1X52.0Y26.0F3000S244
G1X56.0Y26.0F3000S247
G1X57.0Y26.0F3000S239
G1X58.0Y26.0F3000S228
G1X59.0Y26.0F3000S234
G1X60.0Y26.0F3000S241
G1X61.0Y26.0F3000S240
G1X62.0Y26.0F3000S149
G1X63.0Y26.0F3000S43
G1X64.0Y26.0F3000S71
G1X65.0Y26.0F3000S111
G1X66.0Y26.0F3000S229
G1X67.0Y26.0F3000S199
G1X68.0Y26.0F3000S161
G1X69.0Y26.0F3000S113
G1X70.0Y26.0F3000S112
G1X71.0Y26.0F3000S118
G1X72.0Y26.0F3000S92
G1X73.0Y26.0F3000S88
G1X74.0Y26.0F3000S77
G1X75.0Y26.0F3000S68
G1X76.0Y26.0F3000S66
G1X77.0Y26.0F3000S76
G1X78.0Y26.0F3000S87
G1X79.0Y26.0F3000S90
G1X80.0Y26.0F3000S86
G1X81.0Y26.0F3000S85
G1X82.0Y26.0F3000S83
G1X83.0Y26.0F3000S81
G1X84.0Y26.0F3000S36
G1X85.0Y26.0F3000S63
G1X86.0Y26.0F3000S78
G1X87.0Y26.0F3000S79
G1X88.0Y26.0F3000S77
G1X89.0Y26.0F3000S78
G1X90.0Y26.0F3000S73
G1X91.0Y26.0F3000S60
G1X92.0Y26.0F3000S84
G1X93.0Y26.0F3000S87
G1X94.0Y26.0F3000S90
G1X95.0Y26.0F3000S61
G1X96.0Y26.0F3000S107
G1X97.0Y26.0F3000S121
G1X98.0Y26.0F3000S130
G1X99.0Y26.0F3000S141
G1X100.0Y26.0F3000S149
G1X101.0Y26.0F3000S147
G1X102.0Y26.0F3000S148
G1X103.0Y26.0F3000S151
G1X104.0Y26.0F3000S139
G1X105.0Y26.0F3000S88
G1X106.0Y26.0F3000S76
G1X107.0Y26.0F3000S83
G1X108.0Y26.0F3000S49
G1X109.0Y26.0F3000S44
G1X110.0Y26.0F3000S48
G1X111.0Y26.0F3000S60
G1X112.0Y26.0F3000S73
G1X113.0Y26.0F3000S69
G1X114.0Y26.0F3000S65
G1X115.0Y26.0F3000S66
G1X116.0Y26.0F3000S77
G1X117.0Y26.0F3000S185
G1X118.0Y26.0F3000S13
G1X119.0Y26.0F3000S3
G1X120.0Y26.0F3000S161
G1X121.0Y26.0F3000S229
G1X122.0Y26.0F3000S231
G1X123.0Y26.0F3000S226
G1X124.0Y26.0F3000S204
G1X125.0Y26.0F3000S230
G1X126.0Y26.0F3000S229
G1X127.0Y26.0F3000S228
G1X128.0Y26.0F3000S225
G1X129.0Y26.0F3000S196
G1X130.0Y26.0F3000S172
G1X131.0Y26.0F3000S166
G1X132.0Y26.0F3000S42
G1X133.0Y26.0F3000S26
G1X134.0Y26.0F3000S34
G1X135.0Y26.0F3000S39
G1X136.0Y26.0F3000S53
G1X138.0Y26.0F3000S42
G1X139.0Y26.0F3000S40
G1X142.0Y26.0F3000S41
G1X145.0Y26.0F3000S40
G0X145.0Y27.0 
G1X144.0Y27.0F3000S43
G1X142.0Y27.0F3000S45
G1X141.0Y27.0F3000S46
G1X139.0Y27.0F3000S48
G1X138.0Y27.0F3000S50
G1X137.0Y27.0F3000S52
G1X136.0Y27.0F3000S79
G1X135.0Y27.0F3000S58
G1X134.0Y27.0F3000S44
G1X133.0Y27.0F3000S34
G1X132.0Y27.0F3000S30
G1X131.0Y27.0F3000S131
G1X130.0Y27.0F3000S184
G1X129.0Y27.0F3000S224
G1X128.0Y27.0F3000S211
G1X127.0Y27.0F3000S218
G1X125.0Y27.0F3000S227
G1X124.0Y27.0F3000S226
G1X123.0Y27.0F3000S216
G1X122.0Y27.0F3000S225
G1X121.0Y27.0F3000S230
G1X120.0Y27.0F3000S229
G1X119.0Y27.0F3000S203
G1X118.0Y27.0F3000S4
G1X117.0Y27.0F3000S66
G1X116.0Y27.0F3000S164
G1X115.0Y27.0F3000S118
G1X114.0Y27.0F3000S89
G1X113.0Y27.0F3000S75
G1X112.0Y27.0F3000S58
G1X111.0Y27.0F3000S87
G1X110.0Y27.0F3000S103
G1X109.0Y27.0F3000S113
G1X108.0Y27.0F3000S126
G1X107.0Y27.0F3000S137
G1X106.0Y27.0F3000S125
G1X105.0Y27.0F3000S117
G1X104.0Y27.0F3000S137
G1X103.0Y27.0F3000S151
G1X102.0Y27.0F3000S160
G1X101.0Y27.0F3000S143
G1X100.0Y27.0F3000S133
G1X99.0Y27.0F3000S131
G1X98.0Y27.0F3000S157
G1X97.0Y27.0F3000S149
G1X96.0Y27.0F3000S164
G1X95.0Y27.0F3000S155
G1X94.0Y27.0F3000S139
G1X93.0Y27.0F3000S118
G1X92.0Y27.0F3000S107
G1X91.0Y27.0F3000S106
G1X90.0Y27.0F3000S105
G1X89.0Y27.0F3000S104
G1X88.0Y27.0F3000S96
G1X87.0Y27.0F3000S90
G1X86.0Y27.0F3000S83
G1X85.0Y27.0F3000S81
G1X84.0Y27.0F3000S79
G1X83.0Y27.0F3000S77
G1X80.0Y27.0F3000S76
G1X78.0Y27.0F3000S77
G1X76.0Y27.0F3000S78
G1X75.0Y27.0F3000S80
G1X74.0Y27.0F3000S82
G1X73.0Y27.0F3000S84
G1X72.0Y27.0F3000S87
G1X71.0Y27.0F3000S93
G1X70.0Y27.0F3000S99
G1X69.0Y27.0F3000S106
G1X68.0Y27.0F3000S118
G1X67.0Y27.0F3000S165
G1X66.0Y27.0F3000S185
G1X65.0Y27.0F3000S148
G1X64.0Y27.0F3000S141
G1X63.0Y27.0F3000S130
G1X62.0Y27.0F3000S155
G1X61.0Y27.0F3000S183
G1X60.0Y27.0F3000S173
G1X59.0Y27.0F3000S225
G1X58.0Y27.0F3000S244
G1X57.0Y27.0F3000S228
G1X56.0Y27.0F3000S236
G1X55.0Y27.0F3000S245
G1X54.0Y27.0F3000S247
G1X53.0Y27.0F3000S246
G1X51.0Y27.0F3000S247
G1X50.0Y27.0F3000S238
G1X49.0Y27.0F3000S233
G1X48.0Y27.0F3000S241
G1X47.0Y27.0F3000S185
G1X46.0Y27.0F3000S186
G1X45.0Y27.0F3000S226
G1X44.0Y27.0F3000S243
G1X43.0Y27.0F3000S244
G1X42.0Y27.0F3000S245
G1X41.0Y27.0F3000S244
G1X40.0Y27.0F3000S245
G1X39.0Y27.0F3000S244
G1X38.0Y27.0F3000S245
G1X37.0Y27.0F3000S242
G1X36.0Y27.0F3000S237
G1X34.0Y27.0F3000S243
G1X33.0Y27.0F3000S195
G1X32.0Y27.0F3000S234
G1X31.0Y27.0F3000S238
G1X30.0Y27.0F3000S185
G1X29.0Y27.0F3000S245
G1X28.0Y27.0F3000S235
G1X27.0Y27.0F3000S208
G1X26.0Y27.0F3000S225
G1X25.0Y27.0F3000S227
G1X24.0Y27.0F3000S222
G1X23.0Y27.0F3000S230
G1X22.0Y27.0F3000S242
G1X21.0Y27.0F3000S247
G1X20.0Y27.0F3000S246
G1X19.0Y27.0F3000S236
G1X18.0Y27.0F3000S213
G1X17.0Y27.0F3000S233
G1X16.0Y27.0F3000S238
G1X15.0Y27.0F3000S242
G1X14.0Y27.0F3000S241
G1X13.0Y27.0F3000S224
G1X12.0Y27.0F3000S219
G1X11.0Y27.0F3000S30
G1X10.0Y27.0F3000S3
G1X9.0Y27.0F3000S43
G1X8.0Y27.0F3000S13
G1X0.0Y27.0F3000
G1X9.0Y28.0F3000S3
G1X10.0Y28.0F3000S27
G1X11.0Y28.0F3000S7
G1X12.0Y28.0F3000S3
G1X13.0Y28.0F3000S49
G1X14.0Y28.0F3000S136
G1X15.0Y28.0F3000S218
G1X16.0Y28.0F3000S242
G1X17.0Y28.0F3000S241
G1X18.0Y28.0F3000S238
G1X19.0Y28.0F3000S240
G1X20.0Y28.0F3000S246
G1X21.0Y28.0F3000S245
G1X24.0Y28.0F3000S243
G1X25.0Y28.0F3000S235
G1X26.0Y28.0F3000S225
G1X27.0Y28.0F3000S238
G1X28.0Y28.0F3000S243
G1X29.0Y28.0F3000S241
G1X30.0Y28.0F3000S231
G1X31.0Y28.0F3000S235
G1X32.0Y28.0F3000S240
G1X34.0Y28.0F3000S221
G1X36.0Y28.0F3000S243
G1X37.0Y28.0F3000S242
G1X38.0Y28.0F3000S233
G1X39.0Y28.0F3000S240
G1X40.0Y28.0F3000S227
G1X41.0Y28.0F3000S244
G1X42.0Y28.0F3000S245
G1X43.0Y28.0F3000S244
G1X44.0Y28.0F3000S245
G1X45.0Y28.0F3000S244
G1X46.0Y28.0F3000S205
G1X47.0Y28.0F3000S197
G1X48.0Y28.0F3000S193
G1X49.0Y28.0F3000S237
G1X50.0Y28.0F3000S222
G1X51.0Y28.0F3000S167
G1X52.0Y28.0F3000S242
G1X53.0Y28.0F3000S245
G1X54.0Y28.0F3000S246
G1X55.0Y28.0F3000S245
G1X56.0Y28.0F3000S244
G1X57.0Y28.0F3000S239
G1X58.0Y28.0F3000S228
G1X59.0Y28.0F3000S227
G1X60.0Y28.0F3000S181
G1X61.0Y28.0F3000S162
G1X62.0Y28.0F3000S202
G1X63.0Y28.0F3000S197
G1X64.0Y28.0F3000S195
G1X65.0Y28.0F3000S182
G1X66.0Y28.0F3000S206
G1X67.0Y28.0F3000S236
G1X68.0Y28.0F3000S237
G1X69.0Y28.0F3000S233
G1X70.0Y28.0F3000S224
G1X71.0Y28.0F3000S97
G1X72.0Y28.0F3000S90
G1X73.0Y28.0F3000S87
G1X74.0Y28.0F3000S85
G1X75.0Y28.0F3000S82
G1X78.0Y28.0F3000S80
G1X80.0Y28.0F3000S79
G1X81.0Y28.0F3000S70
G1X82.0Y28.0F3000S41
G1X83.0Y28.0F3000S72
G1X84.0Y28.0F3000S87
G1X85.0Y28.0F3000S83
G1X86.0Y28.0F3000S46
G1X87.0Y28.0F3000S89
G1X88.0Y28.0F3000S108
G1X89.0Y28.0F3000S132
G1X90.0Y28.0F3000S155
G1X91.0Y28.0F3000S166
G1X92.0Y28.0F3000S167
G1X93.0Y28.0F3000S171
G1X95.0Y28.0F3000S174
G1X96.0Y28.0F3000S170
G1X97.0Y28.0F3000S163
G1X98.0Y28.0F3000S150
G1X99.0Y28.0F3000S142
G1X100.0Y28.0F3000S132
G1X101.0Y28.0F3000S124
G1X102.0Y28.0F3000S118
G1X103.0Y28.0F3000S122
G1X104.0Y28.0F3000S141
G1X105.0Y28.0F3000S123
G1X106.0Y28.0F3000S122
G1X107.0Y28.0F3000S99
G1X108.0Y28.0F3000S79
G1X109.0Y28.0F3000S77
G1X110.0Y28.0F3000S95
G1X111.0Y28.0F3000S123
G1X112.0Y28.0F3000S163
G1X113.0Y28.0F3000S177
G1X114.0Y28.0F3000S167
G1X115.0Y28.0F3000S174
G1X116.0Y28.0F3000S153
G1X117.0Y28.0F3000S99
G1X118.0Y28.0F3000S132
G1X119.0Y28.0F3000S160
G1X120.0Y28.0F3000S120
G1X121.0Y28.0F3000S141
G1X122.0Y28.0F3000S188
G1X123.0Y28.0F3000S228
G1X124.0Y28.0F3000S216
G1X125.0Y28.0F3000S193
G1X127.0Y28.0F3000S176
G1X128.0Y28.0F3000S182
G1X129.0Y28.0F3000S224
G1X130.0Y28.0F3000S217
G1X131.0Y28.0F3000S220
G1X132.0Y28.0F3000S185
G1X133.0Y28.0F3000S46
G1X134.0Y28.0F3000S56
G1X135.0Y28.0F3000S48
G1X136.0Y28.0F3000S54
G1X138.0Y28.0F3000S57
G1X139.0Y28.0F3000S56
G1X140.0Y28.0F3000S55
G1X141.0Y28.0F3000S53
G1X143.0Y28.0F3000S50
G1X144.0Y28.0F3000S49
G1X145.0Y28.0F3000S48
G0X145.0Y29.0 
G1X144.0Y29.0F3000S54
G1X143.0Y29.0F3000S56
G1X142.0Y29.0F3000S57
G1X141.0Y29.0F3000S58
G1X140.0Y29.0F3000S59
G1X139.0Y29.0F3000S62
G1X138.0Y29.0F3000S61
G1X136.0Y29.0F3000S65
G1X135.0Y29.0F3000S62
G1X134.0Y29.0F3000S57
G1X133.0Y29.0F3000S71
G1X132.0Y29.0F3000S62
G1X131.0Y29.0F3000S213
G1X130.0Y29.0F3000S218
G1X129.0Y29.0F3000S222
G1X128.0Y29.0F3000S185
G1X127.0Y29.0F3000S160
G1X126.0Y29.0F3000S196
G1X125.0Y29.0F3000S200
G1X124.0Y29.0F3000S187
G1X123.0Y29.0F3000S194
G1X122.0Y29.0F3000S188
G1X121.0Y29.0F3000S133
G1X120.0Y29.0F3000S188
G1X119.0Y29.0F3000S167
G1X118.0Y29.0F3000S60
G1X117.0Y29.0F3000S168
G1X116.0Y29.0F3000S160
G1X115.0Y29.0F3000S195
G1X114.0Y29.0F3000S55
G1X113.0Y29.0F3000S17
G1X112.0Y29.0F3000S23
G1X111.0Y29.0F3000S25
G1X110.0Y29.0F3000S48
G1X109.0Y29.0F3000S52
G1X108.0Y29.0F3000S189
G1X107.0Y29.0F3000S185
G1X106.0Y29.0F3000S179
G1X105.0Y29.0F3000S149
G1X104.0Y29.0F3000S153
G1X103.0Y29.0F3000S146
G1X102.0Y29.0F3000S129
G1X101.0Y29.0F3000S151
G1X100.0Y29.0F3000S125
G1X99.0Y29.0F3000S17
G1X98.0Y29.0F3000S60
G1X97.0Y29.0F3000S124
G1X96.0Y29.0F3000S144
G1X95.0Y29.0F3000S141
G1X94.0Y29.0F3000S144
G1X93.0Y29.0F3000S149
G1X92.0Y29.0F3000S152
G1X91.0Y29.0F3000S147
G1X90.0Y29.0F3000S163
G1X89.0Y29.0F3000S170
G1X88.0Y29.0F3000S173
G1X87.0Y29.0F3000S172
G1X86.0Y29.0F3000S167
G1X85.0Y29.0F3000S158
G1X84.0Y29.0F3000S142
G1X83.0Y29.0F3000S123
G1X82.0Y29.0F3000S96
G1X81.0Y29.0F3000S57
G1X80.0Y29.0F3000S26
G1X79.0Y29.0F3000S84
G1X78.0Y29.0F3000S90
G1X77.0Y29.0F3000S91
G1X76.0Y29.0F3000S93
G1X75.0Y29.0F3000S96
G1X73.0Y29.0F3000S98
G1X72.0Y29.0F3000S93
G1X71.0Y29.0F3000S185
G1X70.0Y29.0F3000S218
G1X69.0Y29.0F3000S229
G1X68.0Y29.0F3000S231
G1X67.0Y29.0F3000S199
G1X66.0Y29.0F3000S202
G1X65.0Y29.0F3000S203
G1X63.0Y29.0F3000S194
G1X62.0Y29.0F3000S200
G1X61.0Y29.0F3000S184
G1X60.0Y29.0F3000S85
G1X59.0Y29.0F3000S63
G1X58.0Y29.0F3000S227
G1X56.0Y29.0F3000S229
G1X55.0Y29.0F3000S240
G1X54.0Y29.0F3000S244
G1X53.0Y29.0F3000S211
G1X52.0Y29.0F3000S243
G1X51.0Y29.0F3000S240
G1X50.0Y29.0F3000S213
G1X49.0Y29.0F3000S217
G1X48.0Y29.0F3000S201
G1X47.0Y29.0F3000S188
G1X46.0Y29.0F3000S189
G1X45.0Y29.0F3000S193
G1X44.0Y29.0F3000S238
G1X43.0Y29.0F3000S230
G1X42.0Y29.0F3000S244
G1X41.0Y29.0F3000S174
G1X40.0Y29.0F3000S244
G1X39.0Y29.0F3000S227
G1X38.0Y29.0F3000S223
G1X37.0Y29.0F3000S243
G1X36.0Y29.0F3000S232
G1X35.0Y29.0F3000S243
G1X34.0Y29.0F3000S223
G1X33.0Y29.0F3000S210
G1X31.0Y29.0F3000S234
G1X30.0Y29.0F3000S232
G1X29.0Y29.0F3000S239
G1X28.0Y29.0F3000S246
G1X27.0Y29.0F3000S240
G1X26.0Y29.0F3000S247
G1X25.0Y29.0F3000S236
G1X24.0Y29.0F3000S237
G1X23.0Y29.0F3000S230
G1X22.0Y29.0F3000S225
G1X21.0Y29.0F3000S228
G1X20.0Y29.0F3000S233
G1X19.0Y29.0F3000S245
G1X18.0Y29.0F3000S246
G1X17.0Y29.0F3000S235
G1X16.0Y29.0F3000S240
G1X15.0Y29.0F3000S241
G1X14.0Y29.0F3000S230
G1X13.0Y29.0F3000S145
G1X11.0Y29.0F3000S3
G1X10.0Y29.0F3000S20
G1X9.0Y29.0F3000S5
G1X0.0Y29.0F3000
G1X3.0Y30.0F3000S3
G1X4.0Y30.0F3000S4
G1X13.0Y30.0F3000S3
G1X14.0Y30.0F3000S60
G1X15.0Y30.0F3000S231
G1X16.0Y30.0F3000S241
G1X17.0Y30.0F3000S221
G1X18.0Y30.0F3000S238
G1X19.0Y30.0F3000S245
G1X20.0Y30.0F3000S232
G1X21.0Y30.0F3000S223
G1X22.0Y30.0F3000S210
G1X23.0Y30.0F3000S174
G1X24.0Y30.0F3000S177
G1X25.0Y30.0F3000S223
G1X26.0Y30.0F3000S232
G1X27.0Y30.0F3000S247
G1X28.0Y30.0F3000S246
G1X29.0Y30.0F3000S245
G1X30.0Y30.0F3000S239
G1X31.0Y30.0F3000S211
G1X32.0Y30.0F3000S220
G1X33.0Y30.0F3000S231
G1X34.0Y30.0F3000S239
G1X35.0Y30.0F3000S178
G1X36.0Y30.0F3000S218
G1X37.0Y30.0F3000S239
G1X38.0Y30.0F3000S234
G1X39.0Y30.0F3000S215
G1X40.0Y30.0F3000S225
G1X41.0Y30.0F3000S238
G1X42.0Y30.0F3000S242
G1X44.0Y30.0F3000S225
G1X45.0Y30.0F3000S243
G1X46.0Y30.0F3000S192
G1X47.0Y30.0F3000S202
G1X48.0Y30.0F3000S111
G1X49.0Y30.0F3000S183
G1X50.0Y30.0F3000S80
G1X51.0Y30.0F3000S160
G1X52.0Y30.0F3000S193
G1X53.0Y30.0F3000S96
G1X54.0Y30.0F3000S193
G1X55.0Y30.0F3000S219
G1X56.0Y30.0F3000S230
G1X57.0Y30.0F3000S228
G1X58.0Y30.0F3000S227
G1X59.0Y30.0F3000S220
G1X60.0Y30.0F3000S135
G1X61.0Y30.0F3000S167
G1X62.0Y30.0F3000S199
G1X63.0Y30.0F3000S190
G1X64.0Y30.0F3000S180
G1X65.0Y30.0F3000S170
G1X66.0Y30.0F3000S176
G1X67.0Y30.0F3000S182
G1X68.0Y30.0F3000S195
G1X69.0Y30.0F3000S175
G1X70.0Y30.0F3000S187
G1X71.0Y30.0F3000S191
G1X72.0Y30.0F3000S13
G1X73.0Y30.0F3000S53
G1X74.0Y30.0F3000S113
G1X75.0Y30.0F3000S112
G1X76.0Y30.0F3000S97
G1X77.0Y30.0F3000S90
G1X78.0Y30.0F3000S94
G1X79.0Y30.0F3000S116
G1X80.0Y30.0F3000S134
G1X81.0Y30.0F3000S144
G1X82.0Y30.0F3000S154
G1X83.0Y30.0F3000S138
G1X84.0Y30.0F3000S167
G1X85.0Y30.0F3000S166
G1X86.0Y30.0F3000S159
G1X87.0Y30.0F3000S154
G1X88.0Y30.0F3000S152
G1X90.0Y30.0F3000S151
G1X91.0Y30.0F3000S150
G1X92.0Y30.0F3000S157
G1X93.0Y30.0F3000S176
G1X94.0Y30.0F3000S180
G1X95.0Y30.0F3000S189
G1X96.0Y30.0F3000S164
G1X97.0Y30.0F3000S167
G1X98.0Y30.0F3000S171
G1X99.0Y30.0F3000S155
G1X100.0Y30.0F3000S167
G1X101.0Y30.0F3000S169
G1X102.0Y30.0F3000S178
G1X103.0Y30.0F3000S174
G1X104.0Y30.0F3000S139
G1X105.0Y30.0F3000S133
G1X106.0Y30.0F3000S171
G1X107.0Y30.0F3000S160
G1X108.0Y30.0F3000S152
G1X109.0Y30.0F3000S200
G1X110.0Y30.0F3000S196
G1X111.0Y30.0F3000S111
G1X112.0Y30.0F3000S16
G1X113.0Y30.0F3000S3
G1X114.0Y30.0F3000S44
G1X115.0Y30.0F3000S66
G1X116.0Y30.0F3000S195
G1X117.0Y30.0F3000S98
G1X118.0Y30.0F3000S198
G1X119.0Y30.0F3000S173
G1X120.0Y30.0F3000S200
G1X121.0Y30.0F3000S185
G1X122.0Y30.0F3000S88
G1X123.0Y30.0F3000S110
G1X124.0Y30.0F3000S182
G1X125.0Y30.0F3000S176
G1X126.0Y30.0F3000S151
G1X127.0Y30.0F3000S153
G1X128.0Y30.0F3000S199
G1X129.0Y30.0F3000S151
G1X130.0Y30.0F3000S213
G1X131.0Y30.0F3000S221
G1X132.0Y30.0F3000S223
G1X133.0Y30.0F3000S88
G1X134.0Y30.0F3000S70
G1X135.0Y30.0F3000S85
G1X136.0Y30.0F3000S90
G1X137.0Y30.0F3000S97
G1X138.0Y30.0F3000S102
G1X139.0Y30.0F3000S99
G1X140.0Y30.0F3000S95
G1X141.0Y30.0F3000S91
G1X142.0Y30.0F3000S86
G1X143.0Y30.0F3000S81
G1X144.0Y30.0F3000S76
G1X145.0Y30.0F3000S71
G0X145.0Y31.0 
G1X144.0Y31.0F3000S31
G1X143.0Y31.0F3000S39
G1X142.0Y31.0F3000S43
G1X141.0Y31.0F3000S41
G1X140.0Y31.0F3000S36
G1X139.0Y31.0F3000S37
G1X138.0Y31.0F3000S39
G1X137.0Y31.0F3000S46
G1X136.0Y31.0F3000S48
G1X135.0Y31.0F3000S51
G1X134.0Y31.0F3000S77
G1X133.0Y31.0F3000S72
G1X132.0Y31.0F3000S96
G1X131.0Y31.0F3000S225
G1X130.0Y31.0F3000S220
G1X129.0Y31.0F3000S198
G1X128.0Y31.0F3000S185
G1X127.0Y31.0F3000S150
G1X126.0Y31.0F3000S72
G1X125.0Y31.0F3000S118
G1X124.0Y31.0F3000S170
G1X123.0Y31.0F3000S133
G1X122.0Y31.0F3000S137
G1X121.0Y31.0F3000S50
G1X120.0Y31.0F3000S171
G1X119.0Y31.0F3000S182
G1X118.0Y31.0F3000S206
G1X117.0Y31.0F3000S183
G1X116.0Y31.0F3000S195
G1X115.0Y31.0F3000S138
G1X114.0Y31.0F3000S32
G1X113.0Y31.0F3000S105
G1X112.0Y31.0F3000S48
G1X111.0Y31.0F3000S16
G1X110.0Y31.0F3000S11
G1X109.0Y31.0F3000S125
G1X108.0Y31.0F3000S169
G1X107.0Y31.0F3000S143
G1X106.0Y31.0F3000S118
G1X105.0Y31.0F3000S165
G1X104.0Y31.0F3000S181
G1X103.0Y31.0F3000S121
G1X102.0Y31.0F3000S133
G1X101.0Y31.0F3000S107
G1X100.0Y31.0F3000S170
G1X99.0Y31.0F3000S161
G1X98.0Y31.0F3000S163
G1X97.0Y31.0F3000S189
G1X96.0Y31.0F3000S192
G1X95.0Y31.0F3000S190
G1X93.0Y31.0F3000S188
G1X92.0Y31.0F3000S167
G1X91.0Y31.0F3000S134
G1X90.0Y31.0F3000S110
G1X89.0Y31.0F3000S113
G1X88.0Y31.0F3000S142
G1X87.0Y31.0F3000S165
G1X86.0Y31.0F3000S176
G1X85.0Y31.0F3000S140
G1X84.0Y31.0F3000S148
G1X83.0Y31.0F3000S156
G1X82.0Y31.0F3000S157
G1X81.0Y31.0F3000S158
G1X80.0Y31.0F3000S162
G1X79.0Y31.0F3000S167
G1X78.0Y31.0F3000S169
G1X77.0Y31.0F3000S168
G1X76.0Y31.0F3000S164
G1X75.0Y31.0F3000S158
G1X74.0Y31.0F3000S145
G1X73.0Y31.0F3000S190
G1X72.0Y31.0F3000S124
G1X70.0Y31.0F3000S116
G1X69.0Y31.0F3000S159
G1X68.0Y31.0F3000S131
G1X67.0Y31.0F3000S158
G1X66.0Y31.0F3000S33
G1X65.0Y31.0F3000S42
G1X64.0Y31.0F3000S45
G1X63.0Y31.0F3000S101
G1X62.0Y31.0F3000S103
G1X61.0Y31.0F3000S108
G1X60.0Y31.0F3000S122
G1X59.0Y31.0F3000S107
G1X58.0Y31.0F3000S122
G1X57.0Y31.0F3000S140
G1X56.0Y31.0F3000S129
G1X55.0Y31.0F3000S113
G1X54.0Y31.0F3000S180
G1X53.0Y31.0F3000S212
G1X52.0Y31.0F3000S200
G1X51.0Y31.0F3000S102
G1X50.0Y31.0F3000S208
G1X49.0Y31.0F3000S28
G1X48.0Y31.0F3000S138
G1X47.0Y31.0F3000S87
G1X46.0Y31.0F3000S72
G1X45.0Y31.0F3000S88
G1X44.0Y31.0F3000S211
G1X43.0Y31.0F3000S219
G1X42.0Y31.0F3000S217
G1X41.0Y31.0F3000S224
G1X40.0Y31.0F3000S217
G1X39.0Y31.0F3000S207
G1X38.0Y31.0F3000S222
G1X37.0Y31.0F3000S229
G1X36.0Y31.0F3000S234
G1X35.0Y31.0F3000S171
G1X34.0Y31.0F3000S215
G1X33.0Y31.0F3000S222
G1X32.0Y31.0F3000S116
G1X31.0Y31.0F3000S220
G1X30.0Y31.0F3000S234
G1X29.0Y31.0F3000S245
G1X27.0Y31.0F3000S246
G1X26.0Y31.0F3000S243
G1X25.0Y31.0F3000S227
G1X24.0Y31.0F3000S208
G1X23.0Y31.0F3000S238
G1X22.0Y31.0F3000S242
G1X21.0Y31.0F3000S211
G1X20.0Y31.0F3000S210
G1X19.0Y31.0F3000S230
G1X17.0Y31.0F3000S241
G1X16.0Y31.0F3000S228
G1X15.0Y31.0F3000S238
G1X14.0Y31.0F3000S200
G1X12.0Y31.0F3000S3
G1X11.0Y31.0F3000S17
G1X5.0Y31.0F3000S3
G1X4.0Y31.0F3000S4
G1X0.0Y31.0F3000
G1X11.0Y32.0F3000S3
G1X12.0Y32.0F3000S16
G1X14.0Y32.0F3000S3
G1X15.0Y32.0F3000S62
G1X16.0Y32.0F3000S191
G1X17.0Y32.0F3000S208
G1X18.0Y32.0F3000S240
G1X19.0Y32.0F3000S230
G1X20.0Y32.0F3000S223
G1X21.0Y32.0F3000S141
G1X22.0Y32.0F3000S216
G1X23.0Y32.0F3000S238
G1X24.0Y32.0F3000S233
G1X25.0Y32.0F3000S239
G1X26.0Y32.0F3000S209
G1X27.0Y32.0F3000S236
G1X28.0Y32.0F3000S246
G1X29.0Y32.0F3000S244
G1X30.0Y32.0F3000S246
G1X31.0Y32.0F3000S245
G1X32.0Y32.0F3000S118
G1X33.0Y32.0F3000S75
G1X34.0Y32.0F3000S117
G1X35.0Y32.0F3000S124
G1X36.0Y32.0F3000S151
G1X37.0Y32.0F3000S48
G1X38.0Y32.0F3000S150
G1X39.0Y32.0F3000S122
G1X40.0Y32.0F3000S78
G1X41.0Y32.0F3000S167
G1X42.0Y32.0F3000S201
G1X43.0Y32.0F3000S210
G1X44.0Y32.0F3000S208
G1X45.0Y32.0F3000S117
G1X46.0Y32.0F3000S96
G1X47.0Y32.0F3000S130
G1X48.0Y32.0F3000S100
G1X49.0Y32.0F3000S136
G1X50.0Y32.0F3000S143
G1X51.0Y32.0F3000S105
G1X52.0Y32.0F3000S159
G1X53.0Y32.0F3000S178
G1X54.0Y32.0F3000S224
G1X55.0Y32.0F3000S106
G1X56.0Y32.0F3000S111
G1X57.0Y32.0F3000S112
G1X58.0Y32.0F3000S126
G1X59.0Y32.0F3000S127
G1X60.0Y32.0F3000S106
G1X61.0Y32.0F3000S120
G1X62.0Y32.0F3000S123
G1X63.0Y32.0F3000S105
G1X64.0Y32.0F3000S106
G1X65.0Y32.0F3000S95
G1X66.0Y32.0F3000S94
G1X67.0Y32.0F3000S173
G1X68.0Y32.0F3000S102
G1X69.0Y32.0F3000S100
G1X70.0Y32.0F3000S118
G1X71.0Y32.0F3000S109
G1X72.0Y32.0F3000S114
G1X73.0Y32.0F3000S62
G1X74.0Y32.0F3000S124
G1X75.0Y32.0F3000S154
G1X76.0Y32.0F3000S169
G1X77.0Y32.0F3000S164
G1X78.0Y32.0F3000S161
G1X79.0Y32.0F3000S119
G1X80.0Y32.0F3000S76
G1X81.0Y32.0F3000S98
G1X82.0Y32.0F3000S143
G1X83.0Y32.0F3000S142
G1X84.0Y32.0F3000S132
G1X85.0Y32.0F3000S143
G1X86.0Y32.0F3000S170
G1X87.0Y32.0F3000S183
G1X88.0Y32.0F3000S182
G1X89.0Y32.0F3000S178
G1X90.0Y32.0F3000S175
G1X91.0Y32.0F3000S173
G1X92.0Y32.0F3000S175
G1X93.0Y32.0F3000S194
G1X94.0Y32.0F3000S186
G1X95.0Y32.0F3000S148
G1X96.0Y32.0F3000S126
G1X97.0Y32.0F3000S125
G1X98.0Y32.0F3000S136
G1X99.0Y32.0F3000S138
G1X100.0Y32.0F3000S179
G1X101.0Y32.0F3000S160
G1X102.0Y32.0F3000S135
G1X103.0Y32.0F3000S144
G1X104.0Y32.0F3000S172
G1X105.0Y32.0F3000S174
G1X106.0Y32.0F3000S173
G1X107.0Y32.0F3000S190
G1X108.0Y32.0F3000S191
G1X109.0Y32.0F3000S104
G1X110.0Y32.0F3000S185
G1X111.0Y32.0F3000S6
G1X112.0Y32.0F3000S88
G1X113.0Y32.0F3000S188
G1X114.0Y32.0F3000S200
G1X115.0Y32.0F3000S176
G1X116.0Y32.0F3000S155
G1X117.0Y32.0F3000S210
G1X118.0Y32.0F3000S187
G1X119.0Y32.0F3000S212
G1X120.0Y32.0F3000S210
G1X121.0Y32.0F3000S152
G1X122.0Y32.0F3000S103
G1X123.0Y32.0F3000S167
G1X124.0Y32.0F3000S134
G1X125.0Y32.0F3000S150
G1X126.0Y32.0F3000S154
G1X127.0Y32.0F3000S109
G1X128.0Y32.0F3000S158
G1X129.0Y32.0F3000S182
G1X130.0Y32.0F3000S193
G1X131.0Y32.0F3000S220
G1X132.0Y32.0F3000S224
G1X133.0Y32.0F3000S86
G1X134.0Y32.0F3000S99
G1X135.0Y32.0F3000S118
G1X136.0Y32.0F3000S77
G1X137.0Y32.0F3000S56
G1X138.0Y32.0F3000S51
G1X139.0Y32.0F3000S50
G1X141.0Y32.0F3000S48
G1X142.0Y32.0F3000S46
G1X143.0Y32.0F3000S44
G1X144.0Y32.0F3000S43
G1X145.0Y32.0F3000S42
G0X145.0Y33.0 
G1X144.0Y33.0F3000S135
G1X143.0Y33.0F3000S130
G1X142.0Y33.0F3000S123
G1X141.0Y33.0F3000S126
G1X140.0Y33.0F3000S136
G1X139.0Y33.0F3000S149
G1X138.0Y33.0F3000S167
G1X136.0Y33.0F3000S169
G1X135.0Y33.0F3000S192
G1X134.0Y33.0F3000S190
G1X133.0Y33.0F3000S184
G1X132.0Y33.0F3000S197
G1X131.0Y33.0F3000S223
G1X130.0Y33.0F3000S219
G1X129.0Y33.0F3000S191
G1X128.0Y33.0F3000S148
G1X127.0Y33.0F3000S178
G1X126.0Y33.0F3000S150
G1X125.0Y33.0F3000S129
G1X124.0Y33.0F3000S134
G1X123.0Y33.0F3000S164
G1X122.0Y33.0F3000S188
G1X121.0Y33.0F3000S151
G1X120.0Y33.0F3000S166
G1X119.0Y33.0F3000S205
G1X118.0Y33.0F3000S211
G1X117.0Y33.0F3000S203
G1X116.0Y33.0F3000S211
G1X115.0Y33.0F3000S182
G1X114.0Y33.0F3000S200
G1X112.0Y33.0F3000S195
G1X111.0Y33.0F3000S120
G1X110.0Y33.0F3000S24
G1X109.0Y33.0F3000S158
G1X108.0Y33.0F3000S193
G1X107.0Y33.0F3000S201
G1X106.0Y33.0F3000S197
G1X104.0Y33.0F3000S188
G1X103.0Y33.0F3000S193
G1X102.0Y33.0F3000S180
G1X101.0Y33.0F3000S160
G1X100.0Y33.0F3000S157
G1X99.0Y33.0F3000S163
G1X98.0Y33.0F3000S162
G1X97.0Y33.0F3000S169
G1X96.0Y33.0F3000S171
G1X95.0Y33.0F3000S172
G1X94.0Y33.0F3000S171
G1X93.0Y33.0F3000S172
G1X92.0Y33.0F3000S146
G1X91.0Y33.0F3000S107
G1X90.0Y33.0F3000S110
G1X89.0Y33.0F3000S125
G1X88.0Y33.0F3000S147
G1X87.0Y33.0F3000S167
G1X86.0Y33.0F3000S168
G1X85.0Y33.0F3000S169
G1X84.0Y33.0F3000S164
G1X83.0Y33.0F3000S166
G1X82.0Y33.0F3000S177
G1X81.0Y33.0F3000S198
G1X80.0Y33.0F3000S197
G1X79.0Y33.0F3000S189
G1X78.0Y33.0F3000S169
G1X77.0Y33.0F3000S156
G1X76.0Y33.0F3000S170
G1X75.0Y33.0F3000S153
G1X74.0Y33.0F3000S132
G1X73.0Y33.0F3000S206
G1X72.0Y33.0F3000S59
G1X71.0Y33.0F3000S125
G1X70.0Y33.0F3000S108
G1X69.0Y33.0F3000S87
G1X68.0Y33.0F3000S133
G1X67.0Y33.0F3000S114
G1X66.0Y33.0F3000S109
G1X65.0Y33.0F3000S169
G1X64.0Y33.0F3000S99
G1X63.0Y33.0F3000S115
G1X62.0Y33.0F3000S108
G1X61.0Y33.0F3000S113
G1X60.0Y33.0F3000S124
G1X59.0Y33.0F3000S133
G1X58.0Y33.0F3000S136
G1X57.0Y33.0F3000S128
G1X55.0Y33.0F3000S116
G1X54.0Y33.0F3000S122
G1X53.0Y33.0F3000S210
G1X52.0Y33.0F3000S135
G1X51.0Y33.0F3000S170
G1X50.0Y33.0F3000S173
G1X49.0Y33.0F3000S171
G1X48.0Y33.0F3000S104
G1X47.0Y33.0F3000S90
G1X46.0Y33.0F3000S53
G1X44.0Y33.0F3000S48
G1X43.0Y33.0F3000S143
G1X42.0Y33.0F3000S159
G1X41.0Y33.0F3000S137
G1X40.0Y33.0F3000S155
G1X39.0Y33.0F3000S182
G1X36.0Y33.0F3000S183
G1X34.0Y33.0F3000S180
G1X33.0Y33.0F3000S165
G1X32.0Y33.0F3000S191
G1X31.0Y33.0F3000S204
G1X30.0Y33.0F3000S231
G1X29.0Y33.0F3000S236
G1X28.0Y33.0F3000S244
G1X27.0Y33.0F3000S246
G1X26.0Y33.0F3000S229
G1X25.0Y33.0F3000S240
G1X24.0Y33.0F3000S235
G1X23.0Y33.0F3000S231
G1X22.0Y33.0F3000S223
G1X21.0Y33.0F3000S240
G1X20.0Y33.0F3000S214
G1X19.0Y33.0F3000S218
G1X18.0Y33.0F3000S226
G1X17.0Y33.0F3000S238
G1X16.0Y33.0F3000S209
G1X15.0Y33.0F3000S184
G1X14.0Y33.0F3000S4
G1X13.0Y33.0F3000S3
G1X12.0Y33.0F3000S14
G1X11.0Y33.0F3000S5
G1X0.0Y33.0F3000
G1X12.0Y34.0F3000S3
G1X13.0Y34.0F3000S35
G1X14.0Y34.0F3000S33
G1X15.0Y34.0F3000S3
G1X16.0Y34.0F3000S82
G1X17.0Y34.0F3000S208
G1X18.0Y34.0F3000S239
G1X19.0Y34.0F3000S221
G1X20.0Y34.0F3000S215
G1X21.0Y34.0F3000S216
G1X22.0Y34.0F3000S211
G1X23.0Y34.0F3000S68
G1X24.0Y34.0F3000S218
G1X25.0Y34.0F3000S227
G1X26.0Y34.0F3000S233
G1X27.0Y34.0F3000S223
G1X28.0Y34.0F3000S219
G1X29.0Y34.0F3000S195
G1X30.0Y34.0F3000S194
G1X31.0Y34.0F3000S148
G1X32.0Y34.0F3000S164
G1X33.0Y34.0F3000S126
G1X34.0Y34.0F3000S127
G1X35.0Y34.0F3000S158
G1X36.0Y34.0F3000S188
G1X37.0Y34.0F3000S185
G1X38.0Y34.0F3000S186
G1X39.0Y34.0F3000S183
G1X40.0Y34.0F3000S168
G1X41.0Y34.0F3000S184
G1X42.0Y34.0F3000S185
G1X43.0Y34.0F3000S181
G1X44.0Y34.0F3000S158
G1X45.0Y34.0F3000S121
G1X46.0Y34.0F3000S144
G1X47.0Y34.0F3000S138
G1X48.0Y34.0F3000S122
G1X49.0Y34.0F3000S149
G1X50.0Y34.0F3000S133
G1X51.0Y34.0F3000S195
G1X52.0Y34.0F3000S161
G1X53.0Y34.0F3000S132
G1X54.0Y34.0F3000S159
G1X55.0Y34.0F3000S134
G1X56.0Y34.0F3000S131
G1X57.0Y34.0F3000S128
G1X58.0Y34.0F3000S130
G1X59.0Y34.0F3000S125
G1X60.0Y34.0F3000S137
G1X61.0Y34.0F3000S128
G1X62.0Y34.0F3000S120
G1X63.0Y34.0F3000S111
G1X64.0Y34.0F3000S109
G1X65.0Y34.0F3000S136
G1X66.0Y34.0F3000S49
G1X67.0Y34.0F3000S74
G1X68.0Y34.0F3000S76
G1X69.0Y34.0F3000S112
G1X70.0Y34.0F3000S42
G1X71.0Y34.0F3000S112
G1X72.0Y34.0F3000S137
G1X73.0Y34.0F3000S126
G1X74.0Y34.0F3000S139
G1X75.0Y34.0F3000S162
G1X76.0Y34.0F3000S177
G1X77.0Y34.0F3000S179
G1X78.0Y34.0F3000S177
G1X79.0Y34.0F3000S169
G1X80.0Y34.0F3000S164
G1X81.0Y34.0F3000S159
G1X82.0Y34.0F3000S155
G1X83.0Y34.0F3000S126
G1X84.0Y34.0F3000S115
G1X85.0Y34.0F3000S109
G1X86.0Y34.0F3000S57
G1X87.0Y34.0F3000S78
G1X88.0Y34.0F3000S169
G1X89.0Y34.0F3000S182
G1X90.0Y34.0F3000S183
G1X91.0Y34.0F3000S177
G1X92.0Y34.0F3000S176
G1X93.0Y34.0F3000S148
G1X94.0Y34.0F3000S173
G1X95.0Y34.0F3000S167
G1X96.0Y34.0F3000S173
G1X97.0Y34.0F3000S162
G1X98.0Y34.0F3000S165
G1X99.0Y34.0F3000S156
G1X100.0Y34.0F3000S159
G1X101.0Y34.0F3000S164
G1X102.0Y34.0F3000S185
G1X103.0Y34.0F3000S190
G1X104.0Y34.0F3000S199
G1X105.0Y34.0F3000S195
G1X106.0Y34.0F3000S197
G1X107.0Y34.0F3000S200
G1X108.0Y34.0F3000S202
G1X109.0Y34.0F3000S197
G1X110.0Y34.0F3000S193
G1X111.0Y34.0F3000S51
G1X112.0Y34.0F3000S160
G1X113.0Y34.0F3000S190
G1X114.0Y34.0F3000S193
G1X115.0Y34.0F3000S201
G1X116.0Y34.0F3000S195
G1X117.0Y34.0F3000S169
G1X118.0Y34.0F3000S184
G1X119.0Y34.0F3000S196
G1X120.0Y34.0F3000S203
G1X121.0Y34.0F3000S149
G1X122.0Y34.0F3000S164
G1X123.0Y34.0F3000S188
G1X124.0Y34.0F3000S196
G1X125.0Y34.0F3000S192
G1X126.0Y34.0F3000S179
G1X127.0Y34.0F3000S176
G1X128.0Y34.0F3000S161
G1X129.0Y34.0F3000S154
G1X130.0Y34.0F3000S218
G1X131.0Y34.0F3000S215
G1X132.0Y34.0F3000S216
G1X133.0Y34.0F3000S192
G1X134.0Y34.0F3000S183
G1X135.0Y34.0F3000S170
G1X136.0Y34.0F3000S174
G1X137.0Y34.0F3000S169
G1X138.0Y34.0F3000S168
G1X140.0Y34.0F3000S167
G1X141.0Y34.0F3000S165
G1X142.0Y34.0F3000S163
G1X143.0Y34.0F3000S159
G1X144.0Y34.0F3000S154
G1X145.0Y34.0F3000S156
G0X145.0Y35.0 
G1X142.0Y35.0F3000S97
G1X140.0Y35.0F3000S96
G1X139.0Y35.0F3000S95
G1X138.0Y35.0F3000S94
G1X137.0Y35.0F3000S89
G1X136.0Y35.0F3000S93
G1X134.0Y35.0F3000S85
G1X133.0Y35.0F3000S90
G1X132.0Y35.0F3000S102
G1X131.0Y35.0F3000S101
G1X130.0Y35.0F3000S216
G1X129.0Y35.0F3000S214
G1X128.0Y35.0F3000S205
G1X127.0Y35.0F3000S176
G1X126.0Y35.0F3000S158
G1X125.0Y35.0F3000S117
G1X124.0Y35.0F3000S108
G1X123.0Y35.0F3000S171
G1X122.0Y35.0F3000S185
G1X121.0Y35.0F3000S153
G1X120.0Y35.0F3000S178
G1X119.0Y35.0F3000S200
G1X118.0Y35.0F3000S203
G1X117.0Y35.0F3000S206
G1X116.0Y35.0F3000S118
G1X115.0Y35.0F3000S164
G1X114.0Y35.0F3000S201
G1X113.0Y35.0F3000S196
G1X112.0Y35.0F3000S193
G1X111.0Y35.0F3000S192
G1X110.0Y35.0F3000S84
G1X109.0Y35.0F3000S197
G1X108.0Y35.0F3000S202
G1X107.0Y35.0F3000S199
G1X106.0Y35.0F3000S192
G1X105.0Y35.0F3000S199
G1X103.0Y35.0F3000S198
G1X102.0Y35.0F3000S195
G1X101.0Y35.0F3000S180
G1X100.0Y35.0F3000S194
G1X99.0Y35.0F3000S193
G1X98.0Y35.0F3000S187
G1X97.0Y35.0F3000S180
G1X96.0Y35.0F3000S168
G1X95.0Y35.0F3000S174
G1X94.0Y35.0F3000S162
G1X93.0Y35.0F3000S160
G1X92.0Y35.0F3000S155
G1X91.0Y35.0F3000S170
G1X90.0Y35.0F3000S167
G1X89.0Y35.0F3000S178
G1X88.0Y35.0F3000S174
G1X87.0Y35.0F3000S92
G1X86.0Y35.0F3000S28
G1X85.0Y35.0F3000S25
G1X84.0Y35.0F3000S31
G1X83.0Y35.0F3000S184
G1X82.0Y35.0F3000S186
G1X81.0Y35.0F3000S188
G1X80.0Y35.0F3000S198
G1X79.0Y35.0F3000S175
G1X78.0Y35.0F3000S145
G1X77.0Y35.0F3000S112
G1X76.0Y35.0F3000S168
G1X75.0Y35.0F3000S101
G1X74.0Y35.0F3000S164
G1X72.0Y35.0F3000S177
G1X71.0Y35.0F3000S162
G1X70.0Y35.0F3000S132
G1X69.0Y35.0F3000S119
G1X68.0Y35.0F3000S101
G1X67.0Y35.0F3000S78
G1X66.0Y35.0F3000S107
G1X65.0Y35.0F3000S99
G1X64.0Y35.0F3000S168
G1X62.0Y35.0F3000S117
G1X61.0Y35.0F3000S119
G1X60.0Y35.0F3000S125
G1X59.0Y35.0F3000S142
G1X58.0Y35.0F3000S135
G1X57.0Y35.0F3000S133
G1X56.0Y35.0F3000S126
G1X55.0Y35.0F3000S129
G1X54.0Y35.0F3000S132
G1X53.0Y35.0F3000S166
G1X52.0Y35.0F3000S138
G1X51.0Y35.0F3000S195
G1X50.0Y35.0F3000S184
G1X49.0Y35.0F3000S112
G1X48.0Y35.0F3000S125
G1X47.0Y35.0F3000S139
G1X46.0Y35.0F3000S138
G1X45.0Y35.0F3000S147
G1X44.0Y35.0F3000S114
G1X43.0Y35.0F3000S178
G1X42.0Y35.0F3000S186
G1X41.0Y35.0F3000S185
G1X40.0Y35.0F3000S186
